!!!COM: des Prez, Josquin
!!!CDT: ~1450-1521/08/27
!!!OTL: Miserere mei, deus
!!!AGN: Motet
!!!SCT: NJE 18.3
!!!SCA: New Josquin Edition 18.3
!!!voices: 5
**kern	**text	**kern	**text	**kern	**text	**kern	**text	**kern	**text
*staff5	*staff5	*staff4	*staff4	*staff3	*staff3	*staff2	*staff2	*staff1	*staff1
*Ivox	*	*Ivox	*	*Ivox	*	*Ivox	*	*Ivox	*
*I"Bassus	*	*I"Tenor2	*	*I"Tenor1	*	*I"Altus	*	*I"Superius	*
*I'B	*	*I'T2	*	*I'T1	*	*I'A	*	*I'S	*
*>[A,B,C]	*>[A,B,C]	*>[A,B,C]	*>[A,B,C]	*>[A,B,C]	*>[A,B,C]	*>[A,B,C]	*>[A,B,C]	*>[A,B,C]	*>[A,B,C]
*>A	*>A	*>A	*>A	*>A	*>A	*>A	*>A	*>A	*>A
*clefF4	*	*clefGv2	*	*clefGv2	*	*clefGv2	*	*clefG2	*
*k[]	*	*k[]	*	*k[]	*	*k[]	*	*k[]	*
*M2/1	*	*M2/1	*	*M2/1	*	*M2/1	*	*M2/1	*
*met(C|)	*	*met(C|)	*	*met(C|)	*	*met(C|)	*	*met(C|)	*
!!section: Prima pars: Miserere mei
=1-	=1-	=1-	=1-	=1-	=1-	=1-	=1-	=1-	=1-
!	!	!	!	!LO:TX:Z=8:X=-40:t=T motto subject to a transposition scheme in all three sections	!	!	!	!	!
0r	.	1.B	Mi-	0r	.	0r	.	0r	.
.	.	2B	-se-	.	.	.	.	.	.
=2	=2	=2	=2	=2	=2	=2	=2	=2	=2
0r	.	1B	-re-	0r	.	0r	.	0r	.
.	.	1B	-re	.	.	.	.	.	.
=3	=3	=3	=3	=3	=3	=3	=3	=3	=3
1.E	Mi-	1B	me-	0r	.	0r	.	0r	.
.	.	1B	-i,	.	.	.	.	.	.
2E	-se-	.	.	.	.	.	.	.	.
=4	=4	=4	=4	=4	=4	=4	=4	=4	=4
1E	-re-	0c	de-	0r	.	0r	.	0r	.
1E	-re	.	.	.	.	.	.	.	.
=5	=5	=5	=5	=5	=5	=5	=5	=5	=5
1E	me-	1B	.	0r	.	0r	.	0r	.
1E	-i,	1e	.	.	.	.	.	.	.
=6	=6	=6	=6	=6	=6	=6	=6	=6	=6
0F	de-	2d	.	0r	.	0r	.	0r	.
.	.	1c	.	.	.	.	.	.	.
.	.	4B	.	.	.	.	.	.	.
.	.	4A	.	.	.	.	.	.	.
=7	=7	=7	=7	=7	=7	=7	=7	=7	=7
[0E	-us,	[0G	-us,	0r	.	0r	.	1.b	Mi-
.	.	.	.	.	.	.	.	2b	-se-
=8	=8	=8	=8	=8	=8	=8	=8	=8	=8
0E]	.	0G]	.	0r	.	0r	.	1b	-re-
.	.	.	.	.	.	.	.	1b	-re
=9	=9	=9	=9	=9	=9	=9	=9	=9	=9
0r	.	0r	.	0r	.	1.e	Mi-	1b	me-
.	.	.	.	.	.	.	.	1b	-i,
.	.	.	.	.	.	2e	-se-	.	.
=10	=10	=10	=10	=10	=10	=10	=10	=10	=10
0r	.	0r	.	0r	.	1e	-re-	0cc	de-
.	.	.	.	.	.	1e	-re	.	.
=11	=11	=11	=11	=11	=11	=11	=11	=11	=11
0r	.	0r	.	0r	.	1e	me-	0b	-us,
.	.	.	.	.	.	1e	-i,	.	.
=12	=12	=12	=12	=12	=12	=12	=12	=12	=12
0r	.	0r	.	0r	.	0f	de-	1r	.
.	.	.	.	.	.	.	.	1a	se-
=13	=13	=13	=13	=13	=13	=13	=13	=13	=13
0r	.	0r	.	0r	.	0e	-us,	1b	-cun-
.	.	.	.	.	.	.	.	1cc	-dum
=14	=14	=14	=14	=14	=14	=14	=14	=14	=14
0r	.	0r	.	0r	.	1r	.	0dd	ma-
.	.	.	.	.	.	1d	se-	.	.
=15	=15	=15	=15	=15	=15	=15	=15	=15	=15
0r	.	0r	.	0r	.	1e	-cun-	1cc	-gnam
.	.	.	.	.	.	1f	-dum	1a	mi-
=16	=16	=16	=16	=16	=16	=16	=16	=16	=16
0r	.	0r	.	0r	.	0g	ma-	1b	-se-
.	.	.	.	.	.	.	.	1g	-ri-
=17	=17	=17	=17	=17	=17	=17	=17	=17	=17
0r	.	0r	.	0r	.	1f	-gnam	1a	-cor-
.	.	.	.	.	.	1d	mi-	1b	-di-
=18	=18	=18	=18	=18	=18	=18	=18	=18	=18
0r	.	0r	.	0r	.	1e	-se-	1.cc	-am
.	.	.	.	.	.	1f	-ri-	.	.
.	.	.	.	.	.	.	.	4b	.
.	.	.	.	.	.	.	.	4a	.
=19	=19	=19	=19	=19	=19	=19	=19	=19	=19
1.E	Mi-	1r	.	1.e	Mi-	2.g	-cor-	2cc	.
.	.	.	.	.	.	.	.	2b	.
.	.	.	.	.	.	4f	.	.	.
.	.	[1B	Mi-	.	.	4e	-di-	2.g	.
.	.	.	.	.	.	4d	.	.	.
2E	-se-	.	.	2e	-se-	[2e	-am	.	.
.	.	.	.	.	.	.	.	4f	.
=20	=20	=20	=20	=20	=20	=20	=20	=20	=20
1E	-re-	2B]	.	1e	-re-	2e]	.	2g	.
.	.	2B	-se-	.	.	4d	.	2a	.
.	.	.	.	.	.	4c	.	.	.
1E	-re	2B	-re-	1e	-re	1B	tu-	2g#i	tu-
.	.	2B	-re	.	.	.	.	4a	.
.	.	.	.	.	.	.	.	4g#i	.
=21	=21	=21	=21	=21	=21	=21	=21	=21	=21
1AA	me-	1c	me-	1e	me-	[0A	-am;	[0a	-am;
1AA	-i,	1c	-i,	1e	-i,	.	.	.	.
=22	=22	=22	=22	=22	=22	=22	=22	=22	=22
0D	de-	0d	de-	0f	de-	0A]	.	0a_	.
=23	=23	=23	=23	=23	=23	=23	=23	=23	=23
[0AA	-us,	2.c	.	[0e	-us,	0r	.	0a]	.
.	.	4B	.	.	.	.	.	.	.
.	.	4A	.	.	.	.	.	.	.
.	.	4G	.	.	.	.	.	.	.
.	.	[2A	.	.	.	.	.	.	.
=24	=24	=24	=24	=24	=24	=24	=24	=24	=24
0AA]	.	2A]	.	0e]	.	0c	et	0r	.
.	.	4G	.	.	.	.	.	.	.
.	.	4F	.	.	.	.	.	.	.
.	.	2E	.	.	.	.	.	.	.
.	.	2A	.	.	.	.	.	.	.
=25	=25	=25	=25	=25	=25	=25	=25	=25	=25
0r	.	2F	.	0r	.	1d	se-	0r	.
.	.	1G	.	.	.	.	.	.	.
.	.	.	.	.	.	[1e	-cun-	.	.
.	.	2E	.	.	.	.	.	.	.
=26	=26	=26	=26	=26	=26	=26	=26	=26	=26
0r	.	0E	-us,	0r	.	1e]	.	0g	et
.	.	.	.	.	.	1e	-dum	.	.
=27	=27	=27	=27	=27	=27	=27	=27	=27	=27
0r	.	0r	.	0r	.	1c	mul-	1a	se-
.	.	.	.	.	.	1d	-ti-	[1b	-cun-
=28	=28	=28	=28	=28	=28	=28	=28	=28	=28
0r	.	0r	.	0r	.	1.e	-tu-	1b]	.
.	.	.	.	.	.	.	.	1b	-dum
.	.	.	.	.	.	2e	-di-	.	.
=29	=29	=29	=29	=29	=29	=29	=29	=29	=29
0r	.	0r	.	0r	.	1e	-nem	1g	mul-
.	.	.	.	.	.	1c	mi-	1a	-ti-
=30	=30	=30	=30	=30	=30	=30	=30	=30	=30
0r	.	0r	.	0r	.	1d	-se-	1.b	-tu-
.	.	.	.	.	.	[1e	-ra-	.	.
.	.	.	.	.	.	.	.	2b	-di-
=31	=31	=31	=31	=31	=31	=31	=31	=31	=31
0r	.	0r	.	0r	.	2e]	.	2b	-nem
.	.	.	.	.	.	2e	-ti-	2g	mi-
.	.	.	.	.	.	1d	-o-	2a	-se-
.	.	.	.	.	.	.	.	2b	-ra-
=32	=32	=32	=32	=32	=32	=32	=32	=32	=32
0r	.	0r	.	0r	.	2.e	-num	2g	-ti-
.	.	.	.	.	.	.	.	2cc	-o-
.	.	.	.	.	.	4c	.	.	.
.	.	.	.	.	.	4d	.	2b	-num
.	.	.	.	.	.	4e	.	.	.
.	.	.	.	.	.	[2f	tu-	[2a	tu-
=33	=33	=33	=33	=33	=33	=33	=33	=33	=33
0r	.	0r	.	0r	.	4f]	.	2a]	.
.	.	.	.	.	.	4e	.	.	.
.	.	.	.	.	.	1e	-a-	2g	.
.	.	.	.	.	.	.	.	1f	-a-
.	.	.	.	.	.	2d	.	.	.
=34	=34	=34	=34	=34	=34	=34	=34	=34	=34
0r	.	0r	.	0r	.	1e	-rum,	4e	.
.	.	.	.	.	.	.	.	4f	.
.	.	.	.	.	.	.	.	4g	.
.	.	.	.	.	.	.	.	4a	.
.	.	.	.	.	.	1r	.	2b	.
.	.	.	.	.	.	.	.	[2cc	.
=35	=35	=35	=35	=35	=35	=35	=35	=35	=35
0r	.	0r	.	0r	.	1e	de-	2cc]	.
.	.	.	.	.	.	.	.	4b	.
.	.	.	.	.	.	.	.	4a	.
.	.	.	.	.	.	1e	-le	1g	-rum,
=36	=36	=36	=36	=36	=36	=36	=36	=36	=36
0r	.	0r	.	0r	.	1r	.	1e	de-
.	.	.	.	.	.	2r	.	1e	-le
.	.	.	.	.	.	2e	i-	.	.
=37	=37	=37	=37	=37	=37	=37	=37	=37	=37
0r	.	0r	.	0r	.	2e	-ni-	2r	.
.	.	.	.	.	.	2e	-qui-	2g	i-
.	.	.	.	.	.	1d	-ta-	2a	-ni-
.	.	.	.	.	.	.	.	2b	-qui-
=38	=38	=38	=38	=38	=38	=38	=38	=38	=38
0r	.	0r	.	0r	.	2c	-tem	2.cc	-ta-
.	.	.	.	.	.	4A	me-	.	.
.	.	.	.	.	.	4B	.	4b	.
.	.	.	.	.	.	4c	.	2a	.
.	.	.	.	.	.	4d	.	.	.
.	.	.	.	.	.	[2e	.	2g	-tem
=39	=39	=39	=39	=39	=39	=39	=39	=39	=39
0r	.	0r	.	0r	.	4e]	.	2f	me-
.	.	.	.	.	.	4d	.	.	.
.	.	.	.	.	.	1d	.	2d	.
.	.	.	.	.	.	.	.	1e	.
.	.	.	.	.	.	2c#i	.	.	.
=40	=40	=40	=40	=40	=40	=40	=40	=40	=40
1.D	Mi-	1.F	Mi-	1.d	Mi-	1d	-am.	1d	-am.
.	.	.	.	.	.	1D	Mi-	[1a	Mi-
2D	-se-	2F	-se-	2d	-se-	.	.	.	.
=41	=41	=41	=41	=41	=41	=41	=41	=41	=41
1D	-re-	1F	-re-	1d	-re-	1A	-se-	2a]	.
.	.	.	.	.	.	.	.	2a	-se-
1GG	-re	1G	-re	1d	-re	1G	-re-	1b-i	-re-
=42	=42	=42	=42	=42	=42	=42	=42	=42	=42
1D	me-	1F	me-	1d	me-	1A	-re	2a	-re
.	.	.	.	.	.	.	.	2dd	me-
1BB	-i,	1D	-i,	1d	-i,	1B	me-	2dd	-i,
.	.	.	.	.	.	.	.	[2dd	de-
=43	=43	=43	=43	=43	=43	=43	=43	=43	=43
0AA	de-	0A	de-	0e	de-	1c	-i,	2dd]	.
.	.	.	.	.	.	.	.	4cc	.
.	.	.	.	.	.	.	.	4b	.
.	.	.	.	.	.	[1A	de-	1cc	.
=44	=44	=44	=44	=44	=44	=44	=44	=44	=44
0D	-us,	1F	-us,	[0d	-us,	2A]	.	[0dd	-us,
.	.	.	.	.	.	2F	.	.	.
.	.	1r	.	.	.	1F	-us,	.	.
=45	=45	=45	=45	=45	=45	=45	=45	=45	=45
1r	.	0f	Am-	0d]	.	1r	.	0dd]	.
1D	Am-	.	.	.	.	1F	Am-	.	.
=46	=46	=46	=46	=46	=46	=46	=46	=46	=46
1E	-pli-	1e	-pli-	0r	.	1G	-pli-	1b	Am-
1AA	-us	1c	-us	.	.	1A	-us	1cc	-pli-
=47	=47	=47	=47	=47	=47	=47	=47	=47	=47
1D	la-	1f	la-	0r	.	1F	la-	1dd	-us
1E	-va	1e	-va	.	.	1G	-va	1b	la-
=48	=48	=48	=48	=48	=48	=48	=48	=48	=48
1AA	me	1c	me	0r	.	1A	me	1cc	-va
2r	.	2r	.	.	.	2r	.	2dd	me
2D	ab	2f	ab	.	.	2F	ab	2a	ab
=49	=49	=49	=49	=49	=49	=49	=49	=49	=49
2C	i-	2e	i-	0r	.	2G	i-	2cc	i-
2AA	-ni-	2c	-ni-	.	.	2A	-ni-	2cc	-ni-
2D	-qui-	2f	-qui-	.	.	2F	-qui-	2a	-qui-
2C	-ta-	2e	-ta-	.	.	2G	-ta-	[2cc	-ta-
=50	=50	=50	=50	=50	=50	=50	=50	=50	=50
1AA	-te	2c	-te	0r	.	2.A	.	4cc]	.
.	.	.	.	.	.	.	.	4b	-te
.	.	2.e	me-	.	.	.	.	2.a	me-
.	.	.	.	.	.	4c	-te	.	.
1E	me-	.	.	.	.	1B	me-	.	.
.	.	4d	.	.	.	.	.	4g#i	.
.	.	2e	.	.	.	.	.	4g#i	.
.	.	.	.	.	.	.	.	4f#i	.
=51	=51	=51	=51	=51	=51	=51	=51	=51	=51
0AA	-a,	1c	a,	0r	.	1A	-a,	0a	-a,
.	.	2r	.	.	.	2r	.	.	.
.	.	2c	et	.	.	2A	et	.	.
=52	=52	=52	=52	=52	=52	=52	=52	=52	=52
1r	a,	2d	a	0r	.	2B	a	0r	.
.	.	2e	pec-	.	.	2c	pec-	.	.
2r	.	1f	-ca-	.	.	1d	-ca-	.	.
2D	et	.	.	.	.	.	.	.	.
=53	=53	=53	=53	=53	=53	=53	=53	=53	=53
2E	a	2e	-to	0r	.	2c	-to	0r	.
2F	pec-	1d	me-	.	.	2A	.	.	.
1G	-ca-	.	.	.	.	1B-i	me-	.	.
.	.	4c	.	.	.	.	.	.	.
.	.	4B-i	.	.	.	.	.	.	.
=54	=54	=54	=54	=54	=54	=54	=54	=54	=54
1F	-to	2c	.	0r	.	2.A	-o	1r	.
.	.	2d	.	.	.	.	.	.	.
.	.	.	.	.	.	4F	.	.	.
2E	me-	2c	-o	.	.	2G	.	2r	.
[2D	-o	4d	mun-	.	.	2F	.	2a	et
.	.	4c	.	.	.	.	.	.	.
=55	=55	=55	=55	=55	=55	=55	=55	=55	=55
2D]	.	4B	.	0r	.	2D	mun-	2b	a
.	.	4A	.	.	.	.	.	.	.
2C	mun-	1A	.	.	.	1E	.	2cc	pec-
1BB	-da	.	.	.	.	.	.	1dd	-ca-
.	.	2G#i	-da	.	.	2D	-da	.	.
=56	=56	=56	=56	=56	=56	=56	=56	=56	=56
1AA	me.	2A	me,-	0r	.	1E	me.	1cc	-to
.	.	2c	-mun-	.	.	.	.	.	.
1r	.	2d	.	.	.	1r	.	2b	me-
.	.	[2f	.	.	.	.	.	[2a	-o
=57	=57	=57	=57	=57	=57	=57	=57	=57	=57
0r	.	4f]	.	0r	.	0r	.	2a]	.
.	.	4e	.	.	.	.	.	.	.
.	.	1e	.	.	.	.	.	2g	mun-
.	.	.	.	.	.	.	.	1f	-da
.	.	2d	-da	.	.	.	.	.	.
=58	=58	=58	=58	=58	=58	=58	=58	=58	=58
0r	.	1e	me.	1.c	Mi-	0r	.	0e	me.
.	.	1r	.	.	.	.	.	.	.
.	.	.	.	2c	-se-	.	.	.	.
=59	=59	=59	=59	=59	=59	=59	=59	=59	=59
1r	.	1.e	Mi-	1c	-re-	1.A	Mi-	0r	.
[1A	Mi-	.	.	1c	-re	.	.	.	.
.	.	2d	-se-	.	.	2A	-se-	.	.
=60	=60	=60	=60	=60	=60	=60	=60	=60	=60
2A]	.	2c	-re-	1c	me-	1A	-re-	0r	.
2G	-se-	2B	-re	.	.	.	.	.	.
2F	-re-	2A	me-	1c	-i,	1A	-re	.	.
2E	-re	2G	-i,	.	.	.	.	.	.
=61	=61	=61	=61	=61	=61	=61	=61	=61	=61
2D	me-	2F	de-	0d	de-	1A	me-	0r	.
2C	-i,	2E	.	.	.	.	.	.	.
1BB	de-	1D	.	.	.	1G#i	-i,	.	.
=62	=62	=62	=62	=62	=62	=62	=62	=62	=62
[0AA	-us,	1E	-us,	[0c	-us,	0A	de-	1r	.
.	.	1r	.	.	.	.	.	[1a	Quo-
=63	=63	=63	=63	=63	=63	=63	=63	=63	=63
0AA]	.	1.A	Quo-	0c]	.	0E	-us,	2a]	.
.	.	.	.	.	.	.	.	2a	-ni-
.	.	.	.	.	.	.	.	2a	-am
.	.	2A	-ni-	.	.	.	.	2e	i-
=64	=64	=64	=64	=64	=64	=64	=64	=64	=64
0r	.	2A	-am	0r	.	0r	.	2f	-ni-
.	.	2E	i-	.	.	.	.	2g	-qui-
.	.	2F	-ni-	.	.	.	.	2a	-ta-
.	.	2G	-qui-	.	.	.	.	4d	-tem
.	.	.	.	.	.	.	.	4e	.
=65	=65	=65	=65	=65	=65	=65	=65	=65	=65
0r	.	2A	-ta-	0r	.	0r	.	4f	.
.	.	.	.	.	.	.	.	4g	.
.	.	4D	-tem	.	.	.	.	1a	me-
.	.	4E	.	.	.	.	.	.	.
.	.	4F	.	.	.	.	.	.	.
.	.	4G	.	.	.	.	.	.	.
.	.	[2A	me-	.	.	.	.	4g	.
.	.	.	.	.	.	.	.	4f	.
=66	=66	=66	=66	=66	=66	=66	=66	=66	=66
0r	.	2A]	.	0r	.	0r	.	2e	-am
.	.	4G	.	.	.	.	.	2a	e-
.	.	4F	.	.	.	.	.	.	.
.	.	2E	-am	.	.	.	.	2g	-go
.	.	2A	e-	.	.	.	.	[2cc	co-
=67	=67	=67	=67	=67	=67	=67	=67	=67	=67
0r	.	2c	-go	0r	.	0r	.	4cc]	.
.	.	.	.	.	.	.	.	4b	.
.	.	2d	co-	.	.	.	.	1a	-gno-
.	.	1B	-gno-	.	.	.	.	.	.
.	.	.	.	.	.	.	.	2g#i	.
=68	=68	=68	=68	=68	=68	=68	=68	=68	=68
2r	.	0A	-sco,	0r	.	0r	.	2a	-sco,
2A	et	.	.	.	.	.	.	2cc	et
2A	pec-	.	.	.	.	.	.	2cc	pec-
2A	-ca-	.	.	.	.	.	.	2cc	-ca-
=69	=69	=69	=69	=69	=69	=69	=69	=69	=69
2G	-tum	2r	.	0r	.	0r	.	2b	-tum
1A	me-	2e	et	.	.	.	.	1cc	me-
.	.	2c	.	.	.	.	.	.	.
4G	.	2d	pec-	.	.	.	.	4b	.
4F	.	.	.	.	.	.	.	4a	.
=70	=70	=70	=70	=70	=70	=70	=70	=70	=70
1E	-um	1e	-ca-	0r	.	2r	.	2g	-um,-
.	.	.	.	.	.	2e	et	2g	-et
1r	.	1E	-tum	.	.	2e	pec-	2g	pec-
.	.	.	.	.	.	2e	-ca-	2g	-ca-
=71	=71	=71	=71	=71	=71	=71	=71	=71	=71
0r	.	0r	.	0r	.	2d	-tum	2f	-tum
.	.	.	.	.	.	1e	me-	2g	me-
.	.	.	.	.	.	.	.	1e	-um
.	.	.	.	.	.	4d	.	.	.
.	.	.	.	.	.	4c	.	.	.
=72	=72	=72	=72	=72	=72	=72	=72	=72	=72
0r	.	0r	.	0r	.	2B	-um	4d	con-
.	.	.	.	.	.	.	.	4e	.
.	.	.	.	.	.	2d	con-	4f	.
.	.	.	.	.	.	.	.	4g	.
.	.	.	.	.	.	2c	-tra	4a	-tra
.	.	.	.	.	.	.	.	4e	.
.	.	.	.	.	.	2B	me	2g	me
=73	=73	=73	=73	=73	=73	=73	=73	=73	=73
0r	.	0r	.	0r	.	2A	est	4f	est
.	.	.	.	.	.	.	.	4e	.
.	.	.	.	.	.	2G	.	1e	sem-
.	.	.	.	.	.	1F	sem-	.	.
.	.	.	.	.	.	.	.	2d	.
=74	=74	=74	=74	=74	=74	=74	=74	=74	=74
1r	.	0r	.	1.B	Mi-	0E	-per.	0e	-per.
[1G	Mi-	.	.	.	.	.	.	.	.
.	.	.	.	2B	-se-	.	.	.	.
=75	=75	=75	=75	=75	=75	=75	=75	=75	=75
2G]	.	0r	.	1B	-re-	1.G	Mi-	1r	.
2G	-se-	.	.	.	.	.	.	.	.
2G	-re-	.	.	1B	-re	.	.	[1g	Mi-
2G	-re	.	.	.	.	2G	-se-	.	.
=76	=76	=76	=76	=76	=76	=76	=76	=76	=76
2.E	me-	2.G	Mi-	1B	me-	2G	-re-	2g]	.
.	.	.	.	.	.	2G	-re	2g	-se-
4F	-i,	4G	-se-	.	.	.	.	.	.
1G	de-	2G	-re-	1B	-i,	2.E	me-	2g	-re-
.	.	2G	-re	.	.	.	.	2g	-re
.	.	.	.	.	.	4F	-i,	.	.
=77	=77	=77	=77	=77	=77	=77	=77	=77	=77
0C	.	2.E	me-	0c	de-	1G	de-	2.g	me-
.	.	4F	-i,	.	.	.	.	4f	-i,
.	.	1G	de-	.	.	1G	.	1e	de-
=78	=78	=78	=78	=78	=78	=78	=78	=78	=78
[0GG	-us,	0G	-us,	[0B	-us,	1r	.	0d	-us,
.	.	.	.	.	.	[1d	-Ti-	.	.
=79	=79	=79	=79	=79	=79	=79	=79	=79	=79
0GG]	.	1.G	Ti-	0B]	.	2d]	.	0r	.
.	.	.	.	.	.	2d	-bi	.	.
.	.	.	.	.	.	2d	so-	.	.
.	.	2G	-bi	.	.	2d	-li	.	.
=80	=80	=80	=80	=80	=80	=80	=80	=80	=80
0r	.	2G	so-	0r	.	1e	pec-	0r	.
.	.	2G	-li	.	.	.	.	.	.
.	.	1A	pec-	.	.	2.c	-ca-	.	.
.	.	.	.	.	.	4A	.	.	.
=81	=81	=81	=81	=81	=81	=81	=81	=81	=81
0r	.	2.F	-ca-	0r	.	1A	-vi,	0r	.
.	.	4D	.	.	.	.	.	.	.
.	.	1D	-vi,	.	.	2r	.	.	.
.	.	.	.	.	.	2d	et	.	.
=82	=82	=82	=82	=82	=82	=82	=82	=82	=82
0r	.	2r	.	0r	.	2d	ma-	0r	.
.	.	2G	et	.	.	2d	-lum	.	.
.	.	2G	ma-	.	.	2d	co-	.	.
.	.	2G	-lum	.	.	2d	-ram	.	.
=83	=83	=83	=83	=83	=83	=83	=83	=83	=83
0r	.	2G	co-	0r	.	1e	te	0r	.
.	.	2G	-ram	.	.	.	.	.	.
.	.	1A	te	.	.	2.c	fe-	.	.
.	.	.	.	.	.	4A	.	.	.
=84	=84	=84	=84	=84	=84	=84	=84	=84	=84
0r	.	2.F	fe-	0r	.	1A	-ci;	0r	.
.	.	4D	.	.	.	.	.	.	.
.	.	2D	-ci;	.	.	2A	ut	.	.
.	.	2D	ut	.	.	2d	ju-	.	.
=85	=85	=85	=85	=85	=85	=85	=85	=85	=85
0r	.	2G	ju-	0r	.	2B	-sti-	0r	.
.	.	2E	-sti-	.	.	2c	-fi-	.	.
.	.	2F	-fi-	.	.	2d	-ce-	.	.
.	.	2G	-ce-	.	.	2B	-ris	.	.
=86	=86	=86	=86	=86	=86	=86	=86	=86	=86
0r	.	2E	-ris	0r	.	2r	.	0r	.
.	.	2r	.	.	.	2e	in	.	.
.	.	2A	in	.	.	2e	ser-	.	.
.	.	2A	ser-	.	.	2c	-mo-	.	.
=87	=87	=87	=87	=87	=87	=87	=87	=87	=87
0r	.	2F	-mo-	0r	.	2d	-ni-	0r	.
.	.	2G	-ni-	.	.	2e	-bus	.	.
.	.	2A	-bus	.	.	2.c	tu-	.	.
.	.	[2F	tu-	.	.	.	.	.	.
.	.	.	.	.	.	4A	.	.	.
=88	=88	=88	=88	=88	=88	=88	=88	=88	=88
0r	.	4F]	.	0r	.	2A	-is,	0r	.
.	.	4D	.	.	.	.	.	.	.
.	.	2D	-is,	.	.	2d	et	.	.
.	.	2G	et	.	.	2B	vin-	.	.
.	.	2E	vin-	.	.	2G	-cas	.	.
=89	=89	=89	=89	=89	=89	=89	=89	=89	=89
0r	.	2C	-cas	0r	.	2.c	cum	0r	.
.	.	2.c	cum	.	.	.	.	.	.
.	.	.	.	.	.	4d	.	.	.
.	.	.	.	.	.	2e	.	.	.
.	.	4B	.	.	.	.	.	.	.
.	.	4A	.	.	.	[2f	ju-	.	.
.	.	4G	.	.	.	.	.	.	.
=90	=90	=90	=90	=90	=90	=90	=90	=90	=90
0r	.	2F	ju-	0r	.	4f]	.	0r	.
.	.	.	.	.	.	4e	-di-	.	.
.	.	2G	-di-	.	.	2.d	-ca-	.	.
.	.	1E	-ca-	.	.	.	.	.	.
.	.	.	.	.	.	4c#i	.	.	.
.	.	.	.	.	.	4c#i	.	.	.
.	.	.	.	.	.	4B	.	.	.
=91	=91	=91	=91	=91	=91	=91	=91	=91	=91
1r	.	1D	-ris.	1.A	Mi-	1d	-ris.	0r	.
[1D	Mi-	1r	.	.	.	1r	.	.	.
.	.	.	.	2A	-se-	.	.	.	.
=92	=92	=92	=92	=92	=92	=92	=92	=92	=92
2D]	.	1.F	Mi-	1A	-re-	0r	.	1r	.
2D	-se-	.	.	.	.	.	.	.	.
1D	-re-	.	.	1A	-re	.	.	1d	Mi-
.	.	2F	-se-	.	.	.	.	.	.
=93	=93	=93	=93	=93	=93	=93	=93	=93	=93
1C	-re	1E	-re-	1A	me-	1r	.	1e	-se-
1D	me-	1D	-re	1A	-i,	[1d	Mi-	1f	-re-
=94	=94	=94	=94	=94	=94	=94	=94	=94	=94
0GG	-i,	1G	me-	0B-i	de-	2d]	.	1g	-re
.	.	.	.	.	.	2d	-se-	.	.
.	.	1G	-i,	.	.	2d	-re-	2r	.
.	.	.	.	.	.	2d	-re	2d	me-
=95	=95	=95	=95	=95	=95	=95	=95	=95	=95
0D	de-	2F	de-	[0A	-us,	2d	me-	2.f	.
.	.	2D	.	.	.	2d	-i,	.	.
.	.	.	.	.	.	.	.	4g	-i,
.	.	1F	.	.	.	1d	de-	2.a	de-
.	.	.	.	.	.	.	.	4b	.
=96	=96	=96	=96	=96	=96	=96	=96	=96	=96
0AA	-us,	0E	-us,	0A]	.	0c	-us,	0cc	-us,
=97	=97	=97	=97	=97	=97	=97	=97	=97	=97
1r	.	1r	.	0r	.	1.e	Ec-	1r	.
[1AA	Ec-	[1c	Ec-	.	.	.	.	[1a	Ec-
.	.	.	.	.	.	2e	-ce	.	.
=98	=98	=98	=98	=98	=98	=98	=98	=98	=98
2AA]	.	2c]	.	0r	.	1e	e-	2a]	.
2AA	-ce	2c	-ce	.	.	.	.	2a	-ce
1AA	e-	1c	e-	.	.	1e	-nim	1a	e-
=99	=99	=99	=99	=99	=99	=99	=99	=99	=99
1E	-nim	1B	-nim	0r	.	1r	.	1g	-nim
1E	in	1B	in	.	.	1e	in	1g	in
=100	=100	=100	=100	=100	=100	=100	=100	=100	=100
1E	i-	1B	i-	0r	.	1e	i-	1g	i-
[1C	-ni-	[1e	-ni-	.	.	1e	-ni-	[1cc	-ni-
=101	=101	=101	=101	=101	=101	=101	=101	=101	=101
2C]	.	2e]	.	0r	.	1c	-qui-	2cc]	.
2C	-qui-	2e	-qui-	.	.	.	.	2cc	-qui-
2C	-ta-	2e	-ta-	.	.	[1g	-ta-	2cc	-ta-
2C	-ti-	2e	-ti-	.	.	.	.	2cc	-ti-
=102	=102	=102	=102	=102	=102	=102	=102	=102	=102
1G	-bus	1d	-bus	0r	.	2g]	.	1b	-bus
.	.	.	.	.	.	2g	-ti-	.	.
1G	con-	1B	con-	.	.	2g	-bus	1b	con-
.	.	.	.	.	.	2d	con-	.	.
=103	=103	=103	=103	=103	=103	=103	=103	=103	=103
1F	-ce-	1c	-ce-	0r	.	1f	-ce-	1a	-ce-
1D	-ptus	1d	-ptus	.	.	1f	-ptus	1a	-ptus
=104	=104	=104	=104	=104	=104	=104	=104	=104	=104
1E	sum,	0B	sum,	0r	.	1e	sum,	0g	sum,
2r	.	.	.	.	.	2r	.	.	.
2E	con-	.	.	.	.	2e	con-	.	.
=105	=105	=105	=105	=105	=105	=105	=105	=105	=105
1F	-ce-	1r	.	0r	.	1c	-ce-	1r	.
1F	-ptus	2r	.	.	.	1d	-ptus	1a	et
.	.	2A	et	.	.	.	.	.	.
=106	=106	=106	=106	=106	=106	=106	=106	=106	=106
1E	sum,	2B	in	0r	.	1e	sum,	2g	in
.	.	2c	pec-	.	.	.	.	2e	pec-
2r	.	1d	-ca-	.	.	2r	.	1f	-ca-
2D	et	.	.	.	.	2A	et	.	.
=107	=107	=107	=107	=107	=107	=107	=107	=107	=107
2E	in	1c	-tis	0r	.	2G	in	2e	-tis
2F	pec-	.	.	.	.	2A	pec-	2cc	con-
1G	-ca-	2r	.	.	.	1E	-ca-	2b	-ce-
.	.	2B	con-	.	.	.	.	2g	.
=108	=108	=108	=108	=108	=108	=108	=108	=108	=108
1F	-tis	2c	-ce-	0r	.	1A	-tis	1a	-pit
.	.	2d	-pit	.	.	.	.	.	.
2r	.	1e	me	.	.	1r	.	1g	me
2E	con-	.	.	.	.	.	.	.	.
=109	=109	=109	=109	=109	=109	=109	=109	=109	=109
2F	-ce-	2d	ma-	0r	.	0r	.	1r	.
2G	-pit	2B	-ter	.	.	.	.	.	.
1A	me	1c	me-	.	.	.	.	2r	.
.	.	.	.	.	.	.	.	2c	ma-
=110	=110	=110	=110	=110	=110	=110	=110	=110	=110
2G	ma-	1B	.	0r	.	0r	.	2d	-ter
2E	-ter	.	.	.	.	.	.	2.e	me-
1F	me-	1r	.	.	.	.	.	.	.
.	.	.	.	.	.	.	.	4d	.
.	.	.	.	.	.	.	.	4d	.
.	.	.	.	.	.	.	.	4c	.
=111	=111	=111	=111	=111	=111	=111	=111	=111	=111
0E	-a.	0r	.	1.G	Mi-	1.B	Mi-	0e	-a.
.	.	.	.	2G	-se-	2B	-se-	.	.
=112	=112	=112	=112	=112	=112	=112	=112	=112	=112
1.E	Mi-	1r	.	1G	-re-	1B	-re-	1r	.
.	.	[1e	-Mi-	1G	-re	1B	-re	[1b	Mi-
2E	-se-	.	.	.	.	.	.	.	.
=113	=113	=113	=113	=113	=113	=113	=113	=113	=113
1E	-re-	2e]	.	1G	me-	1B	me-	2b]	.
.	.	2e	-se-	.	.	.	.	2b	-se-
1E	-re	2e	-re-	1G	-i,	1B	-i,	1b	-re-
.	.	2e	-re	.	.	.	.	.	.
=114	=114	=114	=114	=114	=114	=114	=114	=114	=114
1AA	me-	1e	me-	0A	de-	[0c	de-	1a	-re
1AA	-i,	1e	-i,	.	.	.	.	[1cc	me-
=115	=115	=115	=115	=115	=115	=115	=115	=115	=115
1.C	de-	0e	de-	[0G	-us,	0c]	.	2cc]	.
.	.	.	.	.	.	.	.	2b	-i,
.	.	.	.	.	.	.	.	[1g	de-
2D	.	.	.	.	.	.	.	.	.
=116	=116	=116	=116	=116	=116	=116	=116	=116	=116
[0E	-us,	[0e	-us,	0G]	.	0B	-us,	2g]	.
.	.	.	.	.	.	.	.	2a	.
.	.	.	.	.	.	.	.	1b	-us,
=117	=117	=117	=117	=117	=117	=117	=117	=117	=117
0E]	.	0e]	.	0r	.	1r	.	1r	.
.	.	.	.	.	.	1E	Ec-	1g	Ec-
=118	=118	=118	=118	=118	=118	=118	=118	=118	=118
0r	.	1c	Ec-	0r	.	1A	-ce	1a	-ce
.	.	1d	-ce	.	.	1G	e-	1b	e-
=119	=119	=119	=119	=119	=119	=119	=119	=119	=119
0r	.	1e	e-	0r	.	1E	-nim	1g	-nim
.	.	1c	-nim	.	.	[1F	ve-	[1a	ve-
=120	=120	=120	=120	=120	=120	=120	=120	=120	=120
0r	.	1.d	ve-	0r	.	2F]	.	2a]	.
.	.	.	.	.	.	2F	-ri-	2a	-ri-
.	.	.	.	.	.	1G	-ta-	1b	-ta-
.	.	2d	-ri-	.	.	.	.	.	.
=121	=121	=121	=121	=121	=121	=121	=121	=121	=121
0r	.	1e	-ta-	0r	.	1E	-tem	1g	-tem
.	.	1c	-tem	.	.	[1F	di-	[1a	di-
=122	=122	=122	=122	=122	=122	=122	=122	=122	=122
0r	.	1.d	di-	0r	.	2F]	.	2a]	.
.	.	.	.	.	.	2F	-le-	2a	-le-
.	.	.	.	.	.	1G	-xi-	1b	-xi-
.	.	2d	-le-	.	.	.	.	.	.
=123	=123	=123	=123	=123	=123	=123	=123	=123	=123
0r	.	1e	-xi-	0r	.	1E	-sti;	1g	-sti;
.	.	1c	-sti;	.	.	1A	in-	1a	in-
=124	=124	=124	=124	=124	=124	=124	=124	=124	=124
0r	.	1d	in-	0r	.	1G	-cer-	1b	-cer-
.	.	1e	-cer-	.	.	1E	-ta	1g	-ta
=125	=125	=125	=125	=125	=125	=125	=125	=125	=125
0r	.	1c	-ta	0r	.	1.F	et	1.a	et
.	.	[1d	et	.	.	.	.	.	.
.	.	.	.	.	.	2F	oc-	2a	oc-
=126	=126	=126	=126	=126	=126	=126	=126	=126	=126
0r	.	2d]	.	0r	.	1G	-cul-	1b	-cul-
.	.	2d	oc-	.	.	.	.	.	.
.	.	1e	-cul-	.	.	1E	-ta	1g	-ta
=127	=127	=127	=127	=127	=127	=127	=127	=127	=127
0r	.	1c	-ta	0r	.	1.F	sa-	1.a	sa-
.	.	[1d	sa-	.	.	.	.	.	.
.	.	.	.	.	.	2F	-pi-	2a	-pi-
=128	=128	=128	=128	=128	=128	=128	=128	=128	=128
0r	.	2d]	.	0r	.	2F	-en-	2a	-en-
.	.	2d	-pi-	.	.	2F	-ti-	2a	-ti-
.	.	2d	-en-	.	.	1D	-e	1a	-e
.	.	2d	-ti-	.	.	.	.	.	.
=129	=129	=129	=129	=129	=129	=129	=129	=129	=129
0r	.	1d	-e	0r	.	1.G	tu-	1.b	tu-
.	.	[1e	tu-	.	.	.	.	.	.
.	.	.	.	.	.	2E	-e	2g	-e
=130	=130	=130	=130	=130	=130	=130	=130	=130	=130
0r	.	2e]	.	0r	.	1E	ma-	1g	ma-
.	.	2c	-e	.	.	.	.	.	.
.	.	1c	ma-	.	.	[1F	-ni-	[1a	-ni-
=131	=131	=131	=131	=131	=131	=131	=131	=131	=131
0r	.	1.d	-ni-	0r	.	2F]	.	2a]	.
.	.	.	.	.	.	2F	-fe-	2a	-fe-
.	.	.	.	.	.	1G	-sta-	1b	-sta-
.	.	2d	-fe-	.	.	.	.	.	.
=132	=132	=132	=132	=132	=132	=132	=132	=132	=132
0r	.	1e	-sta-	0r	.	1E	-sti	1g	-sti
.	.	1c	-sti	.	.	[1F	mi-	[1a	mi-
=133	=133	=133	=133	=133	=133	=133	=133	=133	=133
0r	.	2d	mi-	0r	.	2F]	.	2a]	.
.	.	2f	.	.	.	4E	.	4g	.
.	.	.	.	.	.	4D	.	4f	.
.	.	2e	.	.	.	2E	.	2g	.
.	.	[2f	.	.	.	2D	.	[2a	.
=134	=134	=134	=134	=134	=134	=134	=134	=134	=134
0r	.	4f]	.	0r	.	2.F	.	2a]	.
.	.	4e	.	.	.	.	.	.	.
.	.	1d	.	.	.	.	.	2f	.
.	.	.	.	.	.	4G	.	.	.
.	.	.	.	.	.	1A	-hi.	1e	.
.	.	2c#i	.	.	.	.	.	.	.
=135	=135	=135	=135	=135	=135	=135	=135	=135	=135
1.D	Mi-	0d	-hi.	1.F	Mi-	1r	.	1d	-hi.
.	.	.	.	.	.	[1A	Mi-	1r	.
2D	-se-	.	.	2F	-se-	.	.	.	.
=136	=136	=136	=136	=136	=136	=136	=136	=136	=136
1D	-re-	1r	.	1F	-re-	2A]	.	1.a	Mi-
.	.	.	.	.	.	2A	-se-	.	.
1D	-re	[1d	Mi-	1F	-re	1A	-re-	.	.
.	.	.	.	.	.	.	.	2a	-se-
=137	=137	=137	=137	=137	=137	=137	=137	=137	=137
1D	me-	2d]	.	1F	me-	1D	-re	1a	-re-
.	.	2d	-se-	.	.	.	.	.	.
1D	-i,	1d	-re-	1F	-i,	1A	me-	1a	-re
=138	=138	=138	=138	=138	=138	=138	=138	=138	=138
0GG	de-	1d	-re	0G	de-	1G	-i,	1b-i	me-
.	.	2d	me-	.	.	[1D	de-	1b-i	-i,
.	.	2d	-i,	.	.	.	.	.	.
=139	=139	=139	=139	=139	=139	=139	=139	=139	=139
[0D	-us,	0d	de-	[0F	-us,	2D]	.	0a	de-
.	.	.	.	.	.	2E	.	.	.
.	.	.	.	.	.	2F	.	.	.
.	.	.	.	.	.	2G	.	.	.
=140	=140	=140	=140	=140	=140	=140	=140	=140	=140
0D_	.	1d	-us,	0F]	.	0A	-us,	0a	-us,
.	.	1r	.	.	.	.	.	.	.
=141	=141	=141	=141	=141	=141	=141	=141	=141	=141
0D]	.	1d	As-	0r	.	0r	.	1r	.
.	.	1f	-per-	.	.	.	.	1d	As-
=142	=142	=142	=142	=142	=142	=142	=142	=142	=142
0r	.	1d	-ges	0r	.	0r	.	1f	-per-
.	.	2.f	me	.	.	.	.	1d	-ges
.	.	4e	.	.	.	.	.	.	.
=143	=143	=143	=143	=143	=143	=143	=143	=143	=143
0r	.	2c	.	0r	.	0r	.	2.e	me
.	.	2.g	do-	.	.	.	.	.	.
.	.	.	.	.	.	.	.	4f	.
.	.	.	.	.	.	.	.	4g	.
.	.	4f	.	.	.	.	.	4a	.
.	.	4e	.	.	.	.	.	[2b	do-
.	.	4d	.	.	.	.	.	.	.
=144	=144	=144	=144	=144	=144	=144	=144	=144	=144
0r	.	2e	.	0r	.	0r	.	4b]	.
.	.	.	.	.	.	.	.	4a	.
.	.	2c	.	.	.	.	.	1a	.
.	.	1B	-mi-	.	.	.	.	.	.
.	.	.	.	.	.	.	.	2g#i	-mi-
=145	=145	=145	=145	=145	=145	=145	=145	=145	=145
1D	As-	[0A	-ne,	0r	.	1r	.	[0a	-ne,
1F	-per-	.	.	.	.	1D	As-	.	.
=146	=146	=146	=146	=146	=146	=146	=146	=146	=146
1D	-ges	0A]	.	0r	.	1F	-per-	0a]	.
2.F	me	.	.	.	.	1D	-ges	.	.
4E	.	.	.	.	.	.	.	.	.
=147	=147	=147	=147	=147	=147	=147	=147	=147	=147
2C	.	0r	.	0r	.	2.E	me	0r	.
2.G	do-	.	.	.	.	.	.	.	.
.	.	.	.	.	.	4F	.	.	.
.	.	.	.	.	.	4G	.	.	.
4F	.	.	.	.	.	4A	.	.	.
4E	.	.	.	.	.	[2B	do-	.	.
4D	.	.	.	.	.	.	.	.	.
=148	=148	=148	=148	=148	=148	=148	=148	=148	=148
2E	.	0r	.	0r	.	4B]	.	1r	.
.	.	.	.	.	.	4A	.	.	.
2C	.	.	.	.	.	1A	.	.	.
1BB	-mi-	.	.	.	.	.	.	1dd	hys-
.	.	.	.	.	.	2G#i	-mi-	.	.
=149	=149	=149	=149	=149	=149	=149	=149	=149	=149
1AA	-ne,	0r	.	0r	.	2A	-ne,	1cc	-so-
.	.	.	.	.	.	2E	hys-	.	.
1D	hys-	.	.	.	.	1F	-so-	1a	-po,-
=150	=150	=150	=150	=150	=150	=150	=150	=150	=150
1C	-so-	1r	.	0r	.	1E	-po,-	2r	.
.	.	.	.	.	.	.	.	1cc	-et
1AA	-po,-	1A	hys-	.	.	1c	-hys-	.	.
.	.	.	.	.	.	.	.	4b	.
.	.	.	.	.	.	.	.	4a	.
=151	=151	=151	=151	=151	=151	=151	=151	=151	=151
1r	.	1G	-so-	0r	.	1d	-so-	2b	.
.	.	.	.	.	.	.	.	1g	mun-
[1C	-et	1E	-po,-	.	.	1e	-po,-	.	.
.	.	.	.	.	.	.	.	[2cc	-da-
=152	=152	=152	=152	=152	=152	=152	=152	=152	=152
2C]	.	1r	.	0r	.	2r	.	4cc]	.
.	.	.	.	.	.	.	.	4b	.
2C	mun-	.	.	.	.	2e	-et	4a	.
.	.	.	.	.	.	.	.	4g	.
1D	-da-	[1A	-et	.	.	2.f	mun-	2f	.
.	.	.	.	.	.	.	.	[2a	.
.	.	.	.	.	.	4e	.	.	.
=153	=153	=153	=153	=153	=153	=153	=153	=153	=153
1AA	-bor,-	2A]	.	0r	.	2c	.	2a]	.
.	.	2A	mun-	.	.	1d	-da-	4g	.
.	.	.	.	.	.	.	.	4f	.
2r	.	1A	-da-	.	.	.	.	1e	.
2AA	-la-	.	.	.	.	2c#i	.	.	.
=154	=154	=154	=154	=154	=154	=154	=154	=154	=154
2BB	-va-	0D	-bor,-	0r	.	2.d	-bor,-	1d	-bor,-
2C	-bis	.	.	.	.	.	.	.	.
.	.	.	.	.	.	4c	.	.	.
1D	me,	.	.	.	.	2A	.	2r	.
.	.	.	.	.	.	2f	-la-	2a	-la-
=155	=155	=155	=155	=155	=155	=155	=155	=155	=155
2r	.	0r	.	0r	.	2e	-va-	2b	-va-
2AA	et	.	.	.	.	2e	-bis	2cc	-bis
2BB	su-	.	.	.	.	2.d	me,	1dd	me,
2C	-per	.	.	.	.	.	.	.	.
.	.	.	.	.	.	4c	.	.	.
=156	=156	=156	=156	=156	=156	=156	=156	=156	=156
1.D	ni-	1.F	-la-	0r	.	2A	.	2r	.
.	.	.	.	.	.	4d	la-	2a	et
.	.	.	.	.	.	4c	.	.	.
.	.	.	.	.	.	4B	-va-	2b	su-
.	.	.	.	.	.	4A	.	.	.
2C	.	2E	-va-	.	.	[2A	.	2cc	-per
=157	=157	=157	=157	=157	=157	=157	=157	=157	=157
1BB	.	1D	-bis	0r	.	2A]	.	1dd	ni-
.	.	.	.	.	.	2G#i	-bis	.	.
1AA	-vem	2E	me,	.	.	2A	me,	1cc	.
.	.	2A	et	.	.	2E	et	.	.
=158	=158	=158	=158	=158	=158	=158	=158	=158	=158
0r	.	2B	su-	0r	.	2G	su-	2b	.
.	.	2c	-per	.	.	2F	-per	1a	.
.	.	1d	ni-	.	.	1D	ni-	.	.
.	.	.	.	.	.	.	.	4g	.
.	.	.	.	.	.	.	.	4f	.
=159	=159	=159	=159	=159	=159	=159	=159	=159	=159
1r	.	1c	-vem	0r	.	1A	-vem	1e	-vem
2r	.	2B	de-	.	.	1r	.	2d	de-
2C	de-	[2A	-al-	.	.	.	.	2e	.
=160	=160	=160	=160	=160	=160	=160	=160	=160	=160
2D	-al-	2A]	.	0r	.	1r	.	2f	-al-
2E	.	2G	.	.	.	.	.	1e	-ba-
1F	-ba-	1A	.	.	.	1D	de-	.	.
.	.	.	.	.	.	.	.	2d	.
=161	=161	=161	=161	=161	=161	=161	=161	=161	=161
0E	-bor.	1.B	-ba-	0r	.	1.G	-al-	1e	-bor.
.	.	.	.	.	.	.	.	1r	.
.	.	2G	.	.	.	2E	-ba-	.	.
=162	=162	=162	=162	=162	=162	=162	=162	=162	=162
0r	.	0G	-bor.	1.E	Mi-	1E	-bor.	1.g	Mi-
.	.	.	.	.	.	[1e	Mi-	.	.
.	.	.	.	2E	-se-	.	.	2g	-se-
=163	=163	=163	=163	=163	=163	=163	=163	=163	=163
1.C	Mi-	1r	.	1E	-re-	1e]	.	1g	-re-
.	.	[1c	Mi-	1E	-re	1e	-se-	1g	-re
2C	-se-	.	.	.	.	.	.	.	.
=164	=164	=164	=164	=164	=164	=164	=164	=164	=164
1C	-re-	2c]	.	1E	me-	1e	-re-	2g	me-
.	.	2c	-se-	.	.	.	.	2g	-i,
1C	-re	2c	-re-	1E	-i,	1e	-re	1g	de-
.	.	2c	-re	.	.	.	.	.	.
=165	=165	=165	=165	=165	=165	=165	=165	=165	=165
1D	me-	1A	me-	0F	de-	1d	me-	2f	.
.	.	.	.	.	.	.	.	4d	.
.	.	.	.	.	.	.	.	4e	.
1D	-i,	1A	-i,	.	.	1d	-i,	4f	.
.	.	.	.	.	.	.	.	4g	.
.	.	.	.	.	.	.	.	[2a	.
=166	=166	=166	=166	=166	=166	=166	=166	=166	=166
0AA	de-	0A	de-	[0El	-us.	0c	de-	4a]	.
.	.	.	.	.	.	.	.	4b	.
.	.	.	.	.	.	.	.	1cc	.
.	.	.	.	.	.	.	.	4b	.
.	.	.	.	.	.	.	.	4a	.
=167	=167	=167	=167	=167	=167	=167	=167	=167	=167
[0El	-us.	[0Gl	-us.	0E_	.	[0Bl	-us.	1b	.
.	.	.	.	.	.	.	.	1g	.
=168	=168	=168	=168	=168	=168	=168	=168	=168	=168
0E]	.	0G]	.	0E]	.	0B]	.	0gl	-us.
!!LO:LB:i:g=z
=169||	=169||	=169||	=169||	=169||	=169||	=169||	=169||	=169||	=169||
*>B	*>B	*>B	*>B	*>B	*>B	*>B	*>B	*>B	*>B
*clefF4	*	*clefGv2	*	*clefGv2	*	*clefGv2	*	*clefG2	*
*k[]	*	*k[]	*	*k[]	*	*k[]	*	*k[]	*
*M2/1	*	*M2/1	*	*M2/1	*	*M2/1	*	*M2/1	*
*met(C|)	*	*met(C|)	*	*met(C|)	*	*met(C|)	*	*met(C|)	*
!!!OMD: Secunda pars: Audi, auditui meo
!!section: Secunda pars: Audi, auditui meo
0r	.	1E	Au-	0r	.	0r	.	0r	.
.	.	1E	-di,	.	.	.	.	.	.
=170	=170	=170	=170	=170	=170	=170	=170	=170	=170
1AA	Au-	0r	.	0r	.	0r	.	0r	.
1AA	-di,	.	.	.	.	.	.	.	.
=171	=171	=171	=171	=171	=171	=171	=171	=171	=171
0r	.	1E	au-	0r	.	0r	.	0r	.
.	.	1E	-di-	.	.	.	.	.	.
=172	=172	=172	=172	=172	=172	=172	=172	=172	=172
1AA	au-	2F	-tu-	0r	.	0r	.	0r	.
.	.	2E	-i	.	.	.	.	.	.
1AA	-di-	1A	me-	.	.	.	.	.	.
=173	=173	=173	=173	=173	=173	=173	=173	=173	=173
2BB	-tu-	2G	-o	0r	.	0r	.	0r	.
2AA	-i	1A	da-	.	.	.	.	.	.
1D	me-	.	.	.	.	.	.	.	.
.	.	2A	-bis	.	.	.	.	.	.
=174	=174	=174	=174	=174	=174	=174	=174	=174	=174
2C	-o	2A	gau-	0r	.	0r	.	0r	.
1D	da-	2A	-di-	.	.	.	.	.	.
.	.	2B	-um	.	.	.	.	.	.
2D	-bis	2A	et	.	.	.	.	.	.
=175	=175	=175	=175	=175	=175	=175	=175	=175	=175
2D	gau-	4d	le-	0r	.	0r	.	0r	.
.	.	4c	.	.	.	.	.	.	.
2D	-di-	4B	.	.	.	.	.	.	.
.	.	4A	.	.	.	.	.	.	.
2E	-um	2G	.	.	.	.	.	.	.
4AA	et	2A	.	.	.	.	.	.	.
4BB	.	.	.	.	.	.	.	.	.
=176	=176	=176	=176	=176	=176	=176	=176	=176	=176
4C	le-	2.E	-ti-	0r	.	0r	.	0r	.
4D	.	.	.	.	.	.	.	.	.
1E	-ti-	.	.	.	.	.	.	.	.
.	.	4G	.	.	.	.	.	.	.
.	.	1F	-ti-	.	.	.	.	.	.
2D	-ti-	.	.	.	.	.	.	.	.
=177	=177	=177	=177	=177	=177	=177	=177	=177	=177
0E	-am,	2E	-am,	0r	.	0r	.	0r	.
.	.	2B	et	.	.	.	.	.	.
.	.	2c	ex-	.	.	.	.	.	.
.	.	2B	-sul-	.	.	.	.	.	.
=178	=178	=178	=178	=178	=178	=178	=178	=178	=178
2r	.	1e	-ta-	0r	.	0r	.	0r	.
2E	et	.	.	.	.	.	.	.	.
2F	ex-	2d	-bunt	.	.	.	.	.	.
2E	-sul-	[2e	os-	.	.	.	.	.	.
=179	=179	=179	=179	=179	=179	=179	=179	=179	=179
1A	-ta-	2e]	.	0r	.	0r	.	0r	.
.	.	4d	.	.	.	.	.	.	.
.	.	4c	.	.	.	.	.	.	.
2G	-bunt	2B	-sa	.	.	.	.	.	.
[2A	os-	2c	hu-	.	.	.	.	.	.
=180	=180	=180	=180	=180	=180	=180	=180	=180	=180
2A]	.	2A	-mi-	0r	.	0r	.	0r	.
4G	.	1c	.	.	.	.	.	.	.
4F	.	.	.	.	.	.	.	.	.
2E	-sa	.	.	.	.	.	.	.	.
2F	hu-	4B	-li-	.	.	.	.	.	.
.	.	4A	.	.	.	.	.	.	.
=181	=181	=181	=181	=181	=181	=181	=181	=181	=181
2G	-mi-	2B	-a-	0r	.	0r	.	0r	.
2A	-li-	1c	.	.	.	.	.	.	.
1F	-a-	.	.	.	.	.	.	.	.
.	.	4B	.	.	.	.	.	.	.
.	.	4A	.	.	.	.	.	.	.
=182	=182	=182	=182	=182	=182	=182	=182	=182	=182
0E	-ta.	1c	.	0r	.	0r	.	2r	.
.	.	.	.	.	.	.	.	2e	Mi-
.	.	1B	-ta.	.	.	.	.	2g	.
.	.	.	.	.	.	.	.	2e	-se-
=183	=183	=183	=183	=183	=183	=183	=183	=183	=183
0r	.	0r	.	2.E	Mi-	2r	.	2.g	-re-
.	.	.	.	.	.	2e	Mi-	.	.
.	.	.	.	4E	-se-	.	.	4a	.
.	.	.	.	2E	-re-	2g	.	2b	-re
.	.	.	.	2E	-re	2e	-se-	2cc	me-
=184	=184	=184	=184	=184	=184	=184	=184	=184	=184
0r	.	0r	.	2E	me-	4g	-re-	2b	-i,
.	.	.	.	.	.	4f	.	.	.
.	.	.	.	2E	-i,	4e	-re	1cc	de-
.	.	.	.	.	.	4d	.	.	.
.	.	.	.	1F	de-	2c	me-	.	.
.	.	.	.	.	.	2d	-i,	4b	.
.	.	.	.	.	.	.	.	4a	.
=185	=185	=185	=185	=185	=185	=185	=185	=185	=185
1r	.	1r	.	0E	-us,	2e	de-	0g	-us,
.	.	.	.	.	.	2c	.	.	.
1E	A-	1e	A-	.	.	1B	-us,	.	.
=186	=186	=186	=186	=186	=186	=186	=186	=186	=186
1F	-ver-	1d	-ver-	0r	.	2r	.	1r	.
.	.	.	.	.	.	2A	A-	.	.
1E	-te	1e	-te	.	.	1B	-ver-	1g	A-
=187	=187	=187	=187	=187	=187	=187	=187	=187	=187
2r	.	1r	.	0r	.	2A	-te	1a	-ver-
2D	fa-	.	.	.	.	2d	fa-	.	.
2E	-ci-	2r	.	.	.	2B	-ci-	1g	-te
2E	-em	2e	fa-	.	.	2c	-em	.	.
=188	=188	=188	=188	=188	=188	=188	=188	=188	=188
1F	tu-	2c	-ci-	0r	.	1A	tu-	2r	.
.	.	2d	-em	.	.	.	.	2a	fa-
1E	-am	1e	tu-	.	.	1B	-am	2g	-ci-
.	.	.	.	.	.	.	.	2g	-em
=189	=189	=189	=189	=189	=189	=189	=189	=189	=189
2r	.	2c	-am	0r	.	2r	.	1cc	tu-
2A	a	2c	a	.	.	2A	a	.	.
2G	pec-	2d	pec-	.	.	2B	pec-	1b	-am
2G	-ca-	2e	-ca-	.	.	2G	-ca-	.	.
=190	=190	=190	=190	=190	=190	=190	=190	=190	=190
2A	-tis	1A	-tis	0r	.	2c	-tis	2r	.
2F	me-	.	.	.	.	2d	.	2a	a
1E	-is,	1B	me-	.	.	1e	me-	2g	pec-
.	.	.	.	.	.	.	.	2g	-ca-
=191	=191	=191	=191	=191	=191	=191	=191	=191	=191
1r	.	0A	-is,	0r	.	1c	-is,	2a	-tis
.	.	.	.	.	.	.	.	2f	me-
1AA	et	.	.	.	.	2r	.	1e	-is,
.	.	.	.	.	.	2c	et	.	.
=192	=192	=192	=192	=192	=192	=192	=192	=192	=192
1BB	om-	2r	.	0r	.	1d	om-	2r	.
.	.	2D	et	.	.	.	.	2d	et
1AA	-nes	1A	om-	.	.	1c	-nes	1e	om-
=193	=193	=193	=193	=193	=193	=193	=193	=193	=193
1D	i-	2D	-nes	0r	.	1f	i-	1d	-nes
.	.	2F	i-	.	.	.	.	.	.
2C	-ni-	2G	-ni-	.	.	2e	-ni-	2r	.
2C	-qui-	2E	-qui-	.	.	2e	-qui-	2g	i-
=194	=194	=194	=194	=194	=194	=194	=194	=194	=194
1D	-ta-	1F	-ta-	0r	.	1d	-ta-	2f	-ni-
.	.	.	.	.	.	.	.	2d	-qui-
1AA	-tes	2E	-tes	.	.	1c	-tes	1e	-ta-
.	.	[2A	me-	.	.	.	.	.	.
=195	=195	=195	=195	=195	=195	=195	=195	=195	=195
1D	me-	2A]	.	0r	.	2.A	me-	2d	-tes
.	.	4G	.	.	.	.	.	2f	me-
.	.	4F	.	.	.	4B	.	.	.
2C	-as	2G	-as	.	.	2c	-as	2e	-as
2AA	.	2A	de-	.	.	[2F	de-	[2f	de-
=196	=196	=196	=196	=196	=196	=196	=196	=196	=196
1BB-i	de-	1D	.	0r	.	2F]	.	2f]	.
.	.	.	.	.	.	2G	.	4e	.
.	.	.	.	.	.	.	.	4d	.
1AA	-le.	1E	.	.	.	1A	.	4c#i	.
.	.	.	.	.	.	.	.	4d	.
.	.	.	.	.	.	.	.	4e	.
.	.	.	.	.	.	.	.	4c#i	.
=197	=197	=197	=197	=197	=197	=197	=197	=197	=197
1r	.	1D	-le.	0r	.	0A	-le.	[0d	-le.
[1D	Mi-	[1A	Mi-	.	.	.	.	.	.
=198	=198	=198	=198	=198	=198	=198	=198	=198	=198
2D]	.	2A]	.	2.F	Mi-	0r	.	0d]	.
2D	-se-	2A	-se-	.	.	.	.	.	.
.	.	.	.	4F	-se-	.	.	.	.
2D	-re-	2A	-re-	2F	-re-	.	.	.	.
2D	-re	2A	-re	2F	-re	.	.	.	.
=199	=199	=199	=199	=199	=199	=199	=199	=199	=199
2D	me-	2A	me-	2F	me-	0r	.	0r	.
2D	-i,	2A	-i,	2F	-i,	.	.	.	.
1GG	de-	1B-i	de-	1G	de-	.	.	.	.
=200	=200	=200	=200	=200	=200	=200	=200	=200	=200
0D	-us,	1.A	.	0F	-us,	0r	.	1r	.
.	.	.	.	.	.	.	.	1a	Cor
.	.	2F	.	.	.	.	.	.	.
=201	=201	=201	=201	=201	=201	=201	=201	=201	=201
0r	.	2.G	-us,	0r	.	1r	.	1b	mun-
.	.	4F	.	.	.	.	.	.	.
.	.	1D	.	.	.	1d	Cor	2a	-dum
.	.	.	.	.	.	.	.	[2dd	cre-
=202	=202	=202	=202	=202	=202	=202	=202	=202	=202
0r	.	0r	.	0r	.	1e	mun-	2dd]	.
.	.	.	.	.	.	.	.	2cc	-a
.	.	.	.	.	.	2d	-dum	1b	in
.	.	.	.	.	.	[2g	cre-	.	.
=203	=203	=203	=203	=203	=203	=203	=203	=203	=203
0r	.	0r	.	0r	.	2g]	.	1a	me,
.	.	.	.	.	.	2f	-a	.	.
.	.	.	.	.	.	2e	in	2g	de-
.	.	.	.	.	.	[2f	me,	[2a	.
=204	=204	=204	=204	=204	=204	=204	=204	=204	=204
0r	.	0r	.	0r	.	4f]	.	4a]	.
.	.	.	.	.	.	4e	.	4g	.
.	.	.	.	.	.	4d	.	4f	.
.	.	.	.	.	.	4c	.	4e	.
.	.	.	.	.	.	1d	de-	1f	.
=205	=205	=205	=205	=205	=205	=205	=205	=205	=205
0r	.	0r	.	0r	.	1c	-us,	0e	-us,
.	.	.	.	.	.	2r	.	.	.
.	.	.	.	.	.	2c	et	.	.
=206	=206	=206	=206	=206	=206	=206	=206	=206	=206
0r	.	0r	.	0r	.	2.f	spi-	2r	.
.	.	.	.	.	.	.	.	2d	et
.	.	.	.	.	.	4f	-ri-	.	.
.	.	.	.	.	.	1f	-tum	2.a	spi-
.	.	.	.	.	.	.	.	4a	-ri-
=207	=207	=207	=207	=207	=207	=207	=207	=207	=207
0r	.	0r	.	0r	.	1e	rec-	1g	-tum
.	.	.	.	.	.	1d	-tum	1f	rec-
=208	=208	=208	=208	=208	=208	=208	=208	=208	=208
0r	.	0r	.	0r	.	2r	.	1e	-tum
.	.	.	.	.	.	2c	in-	.	.
.	.	.	.	.	.	1f	-no-	2r	.
.	.	.	.	.	.	.	.	2d	in-
=209	=209	=209	=209	=209	=209	=209	=209	=209	=209
0r	.	0r	.	0r	.	1e	-va	1g	-no-
.	.	.	.	.	.	2r	.	1f	-va
.	.	.	.	.	.	2d	in	.	.
=210	=210	=210	=210	=210	=210	=210	=210	=210	=210
0r	.	0r	.	0r	.	2c	vi-	2r	.
.	.	.	.	.	.	2g	-sce-	2e	in
.	.	.	.	.	.	2f	-ri-	2d	vi-
.	.	.	.	.	.	2d	-bus	2a	-sce-
=211	=211	=211	=211	=211	=211	=211	=211	=211	=211
0r	.	0r	.	0r	.	1e	me-	2g	-ri-
.	.	.	.	.	.	.	.	2e	-bus
.	.	.	.	.	.	1d	-is.	1f	me-
=212	=212	=212	=212	=212	=212	=212	=212	=212	=212
1r	.	0r	.	0r	.	1r	.	1e	-is.
[1E	Mi-	.	.	.	.	[1e	Mi-	[1g	Mi-
=213	=213	=213	=213	=213	=213	=213	=213	=213	=213
2E]	.	1.E	Mi-	2.G	Mi-	2e]	.	2g]	.
2E	-se-	.	.	.	.	2e	-se-	2g	-se-
.	.	.	.	4G	-se-	.	.	.	.
2E	-re-	.	.	2G	-re-	2e	-re-	2g	-re-
2E	-re	2E	-se-	2G	-re	2e	-re	2g	-re
=214	=214	=214	=214	=214	=214	=214	=214	=214	=214
1E	me-	2E	-re-	2G	me-	2e	me-	2g	me-
.	.	2E	-re	2G	-i,	2e	-i,	2g	-i,
2.AA	-i,	2E	me-	1A	de-	[1e	de-	[1cc	de-
.	.	2E	-i,	.	.	.	.	.	.
4BB	.	.	.	.	.	.	.	.	.
=215	=215	=215	=215	=215	=215	=215	=215	=215	=215
1C	de-	2.E	de-	0G	-us,	1e]	.	1cc]	.
.	.	4F	.	.	.	.	.	.	.
1GG	-us,	1G	-us,	.	.	[1d	-us,	1b	-us,
=216	=216	=216	=216	=216	=216	=216	=216	=216	=216
1r	.	1.D	Ne	0r	.	1d]	.	0r	.
[1D	Ne	.	.	.	.	1r	.	.	.
.	.	2E	pro-	.	.	.	.	.	.
=217	=217	=217	=217	=217	=217	=217	=217	=217	=217
2D]	.	2F	-ji-	0r	.	0r	.	0r	.
2E	pro-	2G	-ci-	.	.	.	.	.	.
2F	-ji-	1A	-as	.	.	.	.	.	.
2G	-ci-	.	.	.	.	.	.	.	.
=218	=218	=218	=218	=218	=218	=218	=218	=218	=218
1A	-as	2D	me	0r	.	0r	.	0r	.
.	.	2c	a	.	.	.	.	.	.
2D	me	2d	fa-	.	.	.	.	.	.
2F	a	2A	-ci-	.	.	.	.	.	.
=219	=219	=219	=219	=219	=219	=219	=219	=219	=219
2E	fa-	1c	-e	0r	.	0r	.	0r	.
2C	-ci-	.	.	.	.	.	.	.	.
1G	-e	1B	tu-	.	.	.	.	.	.
=220	=220	=220	=220	=220	=220	=220	=220	=220	=220
1F	tu-	1A	-a,	0r	.	0r	.	0r	.
1E	-a,	2r	.	.	.	.	.	.	.
.	.	2G	et	.	.	.	.	.	.
=221	=221	=221	=221	=221	=221	=221	=221	=221	=221
2r	.	2.A	spi-	0r	.	0r	.	0r	.
2C	et	.	.	.	.	.	.	.	.
.	.	4c	-ri-	.	.	.	.	.	.
2.D	spi-	2B	-tum	.	.	.	.	.	.
.	.	2A	sanc-	.	.	.	.	.	.
4F	-ri-	.	.	.	.	.	.	.	.
=222	=222	=222	=222	=222	=222	=222	=222	=222	=222
2E	-tum	1c	-tum	0r	.	0r	.	0r	.
2C	sanc-	.	.	.	.	.	.	.	.
2D	-tum	1B	tu-	.	.	.	.	.	.
2E	tu-	.	.	.	.	.	.	.	.
=223	=223	=223	=223	=223	=223	=223	=223	=223	=223
2AA	-um	2A	-um	0r	.	0r	.	0r	.
2C	ne	2E	ne	.	.	.	.	.	.
2D	au-	2F	au-	.	.	.	.	.	.
2E	-fe-	2G	-fe-	.	.	.	.	.	.
=224	=224	=224	=224	=224	=224	=224	=224	=224	=224
2.F	-ras	4A	-ras	0r	.	0r	.	0r	.
.	.	4G	.	.	.	.	.	.	.
.	.	4A	.	.	.	.	.	.	.
4D	.	4B	.	.	.	.	.	.	.
1E	a	4c#i	a	.	.	.	.	.	.
.	.	4d	.	.	.	.	.	.	.
.	.	4e	.	.	.	.	.	.	.
.	.	4c#i	.	.	.	.	.	.	.
=225	=225	=225	=225	=225	=225	=225	=225	=225	=225
1D	me.	1d	me.	0r	.	1.d	Mi-	0r	.
1r	.	1r	.	.	.	.	.	.	.
.	.	.	.	.	.	2d	-se-	.	.
=226	=226	=226	=226	=226	=226	=226	=226	=226	=226
2.D	Mi-	2.F	Mi-	2.A	Mi-	1d	-re-	0r	.
4D	-se-	4F	-se-	4A	-se-	.	.	.	.
2D	-re-	2F	-re-	2A	-re-	1d	-re	.	.
2D	-re	2F	-re	2A	-re	.	.	.	.
=227	=227	=227	=227	=227	=227	=227	=227	=227	=227
2D	me-	2F	me-	2A	me-	1d	me-	0r	.
2D	-i,	2F	-i,	2A	-i,	.	.	.	.
1GG	de-	1G	de-	1B-i	de-	1d	-i,	.	.
=228	=228	=228	=228	=228	=228	=228	=228	=228	=228
0AA	-us,	1E	-us,	0A	-us,	1.c	de-	0r	.
.	.	[1c	Red-	.	.	.	.	.	.
.	.	.	.	.	.	2A	.	.	.
=229	=229	=229	=229	=229	=229	=229	=229	=229	=229
1.F	Red-	2c]	.	0r	.	1A	-us,	0a	Red-
.	.	2c	-de	.	.	.	.	.	.
.	.	1c	mi-	.	.	2r	.	.	.
2F	-de	.	.	.	.	[2f	Red-	.	.
=230	=230	=230	=230	=230	=230	=230	=230	=230	=230
1F	mi-	2A	-hi	0r	.	2f]	.	1a	-de
.	.	2A	le-	.	.	2f	-de	.	.
2D	-hi	[1d	-ti-	.	.	1f	mi-	1a	mi-
2D	le-	.	.	.	.	.	.	.	.
=231	=231	=231	=231	=231	=231	=231	=231	=231	=231
1.G	-ti-	2d]	.	0r	.	2d	-hi	1b	-hi
.	.	2d	-ti-	.	.	2d	le-	.	.
.	.	1d	-am	.	.	[1g	-ti-	1b	le-
2G	-ti-	.	.	.	.	.	.	.	.
=232	=232	=232	=232	=232	=232	=232	=232	=232	=232
1G	-am	1.B	sa-	0r	.	2g]	.	1.b	-ti-
.	.	.	.	.	.	2g	-ti-	.	.
2E	sa-	.	.	.	.	1g	-am	.	.
2E	-lu-	2c	-lu-	.	.	.	.	2g	-ti-
=233	=233	=233	=233	=233	=233	=233	=233	=233	=233
1E	-ta-	2B	-ta-	0r	.	2G	sa-	1g	-am
.	.	1c	.	.	.	2G	-lu-	.	.
2C	.	.	.	.	.	2E	-ta-	2g	sa-
[2E	.	4B	-ris	.	.	[2G	.	2g	-lu-
.	.	4A	.	.	.	.	.	.	.
=234	=234	=234	=234	=234	=234	=234	=234	=234	=234
2E]	.	2G	tu-	0r	.	2G]	.	2b	-ta-
4D	-ris	1A	.	.	.	4F	-ris	2cc	-ris
4C	.	.	.	.	.	4E	.	.	.
1BB	tu-	.	.	.	.	1D	tu-	1dd	tu-
.	.	2G#i	.	.	.	.	.	.	.
=235	=235	=235	=235	=235	=235	=235	=235	=235	=235
0AA	-i,	0A	-i,	0r	.	1E	-i,	1cc	-i,
.	.	.	.	.	.	1r	.	1a	et
=236	=236	=236	=236	=236	=236	=236	=236	=236	=236
1AA	et	1r	.	0r	.	1e	et	1.cc	spi-
[1C	spi-	1E	et	.	.	[1e	spi-	.	.
.	.	.	.	.	.	.	.	2cc	-ri-
=237	=237	=237	=237	=237	=237	=237	=237	=237	=237
2C]	.	1.G	spi-	0r	.	2e]	.	1cc	-tu
2C	-ri-	.	.	.	.	2e	-ri-	.	.
1C	-tu	.	.	.	.	2e	-tu	2g	prin-
.	.	2G	-ri-	.	.	2e	prin-	2g	-ci-
=238	=238	=238	=238	=238	=238	=238	=238	=238	=238
1.GG	prin-	1G	-tu	0r	.	2e	-ci-	1g	-pa-
.	.	.	.	.	.	2.d	-pa-	.	.
.	.	2G	prin-	.	.	.	.	1dd	-li
.	.	.	.	.	.	4c	.	.	.
2GG	-ci-	2G	-ci-	.	.	4B	.	.	.
.	.	.	.	.	.	4A	.	.	.
=239	=239	=239	=239	=239	=239	=239	=239	=239	=239
1GG	-pa-	1G	-pa-	0r	.	1B	.	2d	con-
.	.	.	.	.	.	.	.	2d	-fir-
1D	-li	2.F	.	.	.	2A	-li	1f	-ma
.	.	.	.	.	.	2A	con-	.	.
.	.	4G	.	.	.	.	.	.	.
=240	=240	=240	=240	=240	=240	=240	=240	=240	=240
2r	.	1A	-li	0r	.	4c	-fir-	0e	me,
.	.	.	.	.	.	4B	.	.	.
2AA	con-	.	.	.	.	4c	.	.	.
.	.	.	.	.	.	4d	.	.	.
4C	-fir-	1r	.	.	.	4e	.	.	.
4D	.	.	.	.	.	4f	.	.	.
4E	.	.	.	.	.	[2g	.	.	.
4F	.	.	.	.	.	.	.	.	.
=241	=241	=241	=241	=241	=241	=241	=241	=241	=241
2G	.	1r	.	0r	.	4g]	.	1r	.
.	.	.	.	.	.	4f	.	.	.
2A	.	.	.	.	.	1e	.	.	.
1F	-ma	2r	.	.	.	.	.	1a	con-
.	.	2A	con-	.	.	2d	-ma	.	.
=242	=242	=242	=242	=242	=242	=242	=242	=242	=242
2E	me,	4c	-fir-	0r	.	0e	me,	2g	-fir-
.	.	4B	.	.	.	.	.	.	.
2AA	con-	4c	.	.	.	.	.	1cc	.
.	.	4d	.	.	.	.	.	.	.
4C	-fir-	4e	.	.	.	.	.	.	.
4D	.	4f	.	.	.	.	.	.	.
4E	.	[2g	.	.	.	.	.	4b	.
4F	.	.	.	.	.	.	.	4a	.
=243	=243	=243	=243	=243	=243	=243	=243	=243	=243
2G	.	4g]	.	0r	.	0r	.	2b	.
.	.	4f	.	.	.	.	.	.	.
2A	.	1e	.	.	.	.	.	1cc	.
1F	-ma	.	.	.	.	.	.	.	.
.	.	2d	-ma	.	.	.	.	4b	-ma
.	.	.	.	.	.	.	.	4a	.
=244	=244	=244	=244	=244	=244	=244	=244	=244	=244
1E	me.	1e	me.	0r	.	1.e	Mi-	[0g	me.
1r	.	2r	.	.	.	.	.	.	.
.	.	2E	Mi-	.	.	2e	-se-	.	.
=245	=245	=245	=245	=245	=245	=245	=245	=245	=245
2.E	Mi-	2G	-se-	2.B	Mi-	1e	-re-	0g]	.
.	.	2E	-re-	.	.	.	.	.	.
4E	-se-	.	.	4B	-se-	.	.	.	.
2E	-re-	2G	-re	2B	-re-	1e	-re	.	.
2E	-re	2E	me-	2B	-re	.	.	.	.
=246	=246	=246	=246	=246	=246	=246	=246	=246	=246
2E	me-	1G	-i,	2B	me-	2e	me-	0r	.
2E	-i,	.	.	2B	-i,	2e	-i,	.	.
1AA	de-	1A	de-	1c	de-	1e	de-	.	.
=247	=247	=247	=247	=247	=247	=247	=247	=247	=247
0E	-us,	1G	-us,	0B	-us,	0e	-us,	1r	.
.	.	2r	.	.	.	.	.	1g	Do-
.	.	2e	Do-	.	.	.	.	.	.
=248	=248	=248	=248	=248	=248	=248	=248	=248	=248
0r	.	2e	-ce-	0r	.	0r	.	2g	-ce-
.	.	2e	-bo	.	.	.	.	2g	-bo
.	.	2f	i-	.	.	.	.	2a	i-
.	.	2d	-ni-	.	.	.	.	2b	-ni-
=249	=249	=249	=249	=249	=249	=249	=249	=249	=249
0r	.	2e	-quos	0r	.	0r	.	2cc	-quos
.	.	2f	vi-	.	.	.	.	2a	vi-
.	.	2d	-as	.	.	.	.	2b	-as
.	.	[2e	tu-	.	.	.	.	[2cc	tu-
=250	=250	=250	=250	=250	=250	=250	=250	=250	=250
0r	.	4e]	.	0r	.	0r	.	4cc]	.
.	.	4d	.	.	.	.	.	4b	.
.	.	2c	.	.	.	.	.	1a	.
.	.	1B	.	.	.	.	.	.	.
.	.	.	.	.	.	.	.	2g#i	.
=251	=251	=251	=251	=251	=251	=251	=251	=251	=251
1r	.	1A	-as,	0r	.	0r	.	[0a	-as,
[1F	Mi-	1r	.	.	.	.	.	.	.
=252	=252	=252	=252	=252	=252	=252	=252	=252	=252
2F]	.	2.A	Mi-	2.c	Mi-	2.f	Mi-	0a]	.
2F	-se-	.	.	.	.	.	.	.	.
.	.	4A	-se-	4c	-se-	4f	-se-	.	.
2F	-re-	2A	-re-	2c	-re-	2f	-re-	.	.
2F	-re	2A	-re	2c	-re	2f	-re	.	.
=253	=253	=253	=253	=253	=253	=253	=253	=253	=253
2F	me-	2A	me-	2c	me-	2f	me-	0r	.
2F	-i,	2A	-i,	2c	-i,	2f	-i,	.	.
[1F	de-	[1A	de-	1d	de-	[1f	de-	.	.
=254	=254	=254	=254	=254	=254	=254	=254	=254	=254
1F]	.	1A]	.	0c	-us,	1f]	.	2r	.
.	.	.	.	.	.	.	.	2cc	et
1C	-us,	1G	-us,	.	.	1e	-us,	2.cc	im-
.	.	.	.	.	.	.	.	4cc	-pi-
=255	=255	=255	=255	=255	=255	=255	=255	=255	=255
0r	.	0r	.	0r	.	2r	.	1b	-i
.	.	.	.	.	.	2e	et	.	.
.	.	.	.	.	.	2.e	im-	2r	.
.	.	.	.	.	.	.	.	2b	ad
.	.	.	.	.	.	4e	-pi-	.	.
=256	=256	=256	=256	=256	=256	=256	=256	=256	=256
0r	.	0r	.	0r	.	2e	-i	2cc	te
.	.	.	.	.	.	2e	ad	2b	con-
.	.	.	.	.	.	2f	te	2a	-ver-
.	.	.	.	.	.	2e	con-	2g	.
=257	=257	=257	=257	=257	=257	=257	=257	=257	=257
0r	.	1r	.	0r	.	2d	-ver-	1a	.
.	.	.	.	.	.	2c	.	.	.
.	.	2r	.	.	.	1d	-ten-	2.b	-ten-
.	.	2G	et	.	.	.	.	.	.
.	.	.	.	.	.	.	.	4g	.
=258	=258	=258	=258	=258	=258	=258	=258	=258	=258
2r	.	2.c	im-	0r	.	0e	-tur.	0g	-tur.
2E	et	.	.	.	.	.	.	.	.
.	.	4c	-pi-	.	.	.	.	.	.
2.E	im-	1B	-i	.	.	.	.	.	.
4E	-pi-	.	.	.	.	.	.	.	.
=259	=259	=259	=259	=259	=259	=259	=259	=259	=259
2E	-i	2r	.	0r	.	0r	.	0r	.
2E	ad	2B	ad	.	.	.	.	.	.
2E	te	2c	te	.	.	.	.	.	.
2E	con-	2B	con-	.	.	.	.	.	.
=260	=260	=260	=260	=260	=260	=260	=260	=260	=260
2.F	-ver-	2A	-ver-	0r	.	0r	.	0r	.
.	.	2.d	-ten-	.	.	.	.	.	.
4D	.	.	.	.	.	.	.	.	.
1E	-ten-	.	.	.	.	.	.	.	.
.	.	4c#i	.	.	.	.	.	.	.
.	.	4c#i	.	.	.	.	.	.	.
.	.	4B	.	.	.	.	.	.	.
=261	=261	=261	=261	=261	=261	=261	=261	=261	=261
0D	-tur.	0d	-tur.	0r	.	2d	Mi-	2r	.
.	.	.	.	.	.	2f	-se-	2d	Mi-
.	.	.	.	.	.	2d	-re-	2f	-se-
.	.	.	.	.	.	2f	-re	2d	-re-
=262	=262	=262	=262	=262	=262	=262	=262	=262	=262
0r	.	0r	.	2.d	Mi-	2d	me-	2.f	-re
.	.	.	.	.	.	2.f	.	.	.
.	.	.	.	4d	-se-	.	.	4g	.
.	.	.	.	2d	-re-	.	.	2a	.
.	.	.	.	.	.	4e	-i,	.	.
.	.	.	.	2d	-re	[2d	de-	2b-i	me-
=263	=263	=263	=263	=263	=263	=263	=263	=263	=263
0r	.	0r	.	2d	me-	2d]	.	2a	-i,
.	.	.	.	2d	-i,	4c	.	2.dd	de-
.	.	.	.	.	.	4B	.	.	.
.	.	.	.	1e	de-	1A	-us,	.	.
.	.	.	.	.	.	.	.	4cc#i	.
.	.	.	.	.	.	.	.	4cc#i	.
.	.	.	.	.	.	.	.	4b	.
=264	=264	=264	=264	=264	=264	=264	=264	=264	=264
1.D	Li-	0r	.	0d	-us,	1r	.	0dd	-us,
.	.	.	.	.	.	[1A	Li-	.	.
2D	-be-	.	.	.	.	.	.	.	.
=265	=265	=265	=265	=265	=265	=265	=265	=265	=265
1D	-ra	0r	.	0r	.	2A]	.	0r	.
.	.	.	.	.	.	2A	-be-	.	.
1F	me	.	.	.	.	1A	-ra	.	.
=266	=266	=266	=266	=266	=266	=266	=266	=266	=266
2E	de	0r	.	0r	.	1c	me	0r	.
2F	san-	.	.	.	.	.	.	.	.
2G	-gui-	.	.	.	.	2B	de	.	.
2E	-ni-	.	.	.	.	2c	san-	.	.
=267	=267	=267	=267	=267	=267	=267	=267	=267	=267
0D	-bus,	1.d	Li-	0r	.	2d	-gui-	1r	.
.	.	.	.	.	.	2B	-ni-	.	.
.	.	.	.	.	.	1A	-bus,	[1a	Li-
.	.	2d	-be-	.	.	.	.	.	.
=268	=268	=268	=268	=268	=268	=268	=268	=268	=268
0r	.	1d	-ra	0r	.	0r	.	2a]	.
.	.	.	.	.	.	.	.	2a	-be-
.	.	1f	me	.	.	.	.	1a	-ra
=269	=269	=269	=269	=269	=269	=269	=269	=269	=269
0r	.	2e	de	0r	.	0r	.	1cc	me
.	.	2f	san-	.	.	.	.	.	.
.	.	2g	-gui-	.	.	.	.	2b	de
.	.	2e	-ni-	.	.	.	.	2cc	san-
=270	=270	=270	=270	=270	=270	=270	=270	=270	=270
1r	.	1d	-bus,	0r	.	1.f	de-	2dd	-gui-
.	.	.	.	.	.	.	.	2b	-ni-
[1F	de-	2r	.	.	.	.	.	1a	-bus,
.	.	[2c	de-	.	.	2f	-us,	.	.
=271	=271	=271	=271	=271	=271	=271	=271	=271	=271
2F]	.	2c]	.	0r	.	1f	de-	2a	de-
2F	-us,	2c	-us,	.	.	.	.	2a	-us,
1F	de-	1c	de-	.	.	1f	-us	1a	de-
=272	=272	=272	=272	=272	=272	=272	=272	=272	=272
2C	-us	2c	-us	0r	.	1e	sa-	1g	-us
2G	sa-	2B	sa-	.	.	.	.	.	.
2F	-lu-	2A	-lu-	.	.	2d	-lu-	1r	.
[2E	.	[2G	.	.	.	[2c	.	.	.
=273	=273	=273	=273	=273	=273	=273	=273	=273	=273
2E]	.	2G]	.	0r	.	2c]	.	0r	.
4D	-tis	4F	-tis	.	.	4B	-tis	.	.
4C	.	4E	.	.	.	4A	.	.	.
1BB	me-	1D	me-	.	.	4G#i	me-	.	.
.	.	.	.	.	.	4A	.	.	.
.	.	.	.	.	.	4B	.	.	.
.	.	.	.	.	.	4G#i	.	.	.
=274	=274	=274	=274	=274	=274	=274	=274	=274	=274
1AA	-e,	2E	-e,	0r	.	1A	-e,	2r	.
.	.	2e	sa-	.	.	.	.	2cc	sa-
1r	.	2e	-lu-	.	.	1r	.	2b	-lu-
.	.	[2f	.	.	.	.	.	[2a	.
=275	=275	=275	=275	=275	=275	=275	=275	=275	=275
0r	.	2f]	.	0r	.	0r	.	2a]	.
.	.	4e	-tis	.	.	.	.	4g	-tis
.	.	4d	.	.	.	.	.	4f	.
.	.	4c#i	me-	.	.	.	.	1e	me-
.	.	4d	.	.	.	.	.	.	.
.	.	4e	.	.	.	.	.	.	.
.	.	4c#i	.	.	.	.	.	.	.
=276	=276	=276	=276	=276	=276	=276	=276	=276	=276
1r	.	0d	-e,	0r	.	0r	.	1d	-e,
2r	.	.	.	.	.	.	.	2r	.
2D	et	.	.	.	.	.	.	2a	et
=277	=277	=277	=277	=277	=277	=277	=277	=277	=277
2D	ex-	2r	.	0r	.	2r	.	2a	ex-
2D	-sul-	2d	et	.	.	2A	et	2a	-sul-
1F	-ta-	2c	ex-	.	.	2A	ex-	1a	-ta-
.	.	2d	-sul-	.	.	2A	-sul-	.	.
=278	=278	=278	=278	=278	=278	=278	=278	=278	=278
2E	-bit	1e	-ta-	0r	.	1c	-ta-	2g	-bit
2C	lin-	.	.	.	.	.	.	2e	lin-
2D	-gua	2d	-bit	.	.	2B	-bit	2f	-gua
2E	me-	2B	lin-	.	.	2G	lin-	2g	me-
=279	=279	=279	=279	=279	=279	=279	=279	=279	=279
2AA	-a	2c	-gua	0r	.	2A	-gua	2e	-a
2E	ju-	2B	me-	.	.	2B	me-	2g	ju-
2E	-sti-	1G	-a	.	.	2E	-a	2g	-sti-
2E	-ti-	.	.	.	.	2B	ju-	2g	-ti-
=280	=280	=280	=280	=280	=280	=280	=280	=280	=280
2.G	-am	2r	.	0r	.	2B	-sti-	2g	-am
.	.	2d	ju-	.	.	2B	-ti-	4d	tu-
4F	.	.	.	.	.	.	.	4e	.
2.D	tu-	2d	-sti-	.	.	2.d	-am	4f	.
.	.	.	.	.	.	.	.	4g	.
.	.	2d	-ti-	.	.	.	.	[2a	.
4E	.	.	.	.	.	4c	.	.	.
=281	=281	=281	=281	=281	=281	=281	=281	=281	=281
4F	.	1.c	-am	0r	.	2.A	tu-	4a]	.
4G	.	.	.	.	.	.	.	4b	.
2.A	.	.	.	.	.	.	.	2.cc	.
.	.	.	.	.	.	4B	.	.	.
.	.	.	.	.	.	4c	.	.	.
4G	.	.	.	.	.	4d	.	4b	.
2E	.	2B	.	.	.	[2e	.	2g	.
=282	=282	=282	=282	=282	=282	=282	=282	=282	=282
1F	.	1A	tu-	0r	.	4e]	.	1a	.
.	.	.	.	.	.	4d	.	.	.
.	.	.	.	.	.	4d	.	.	.
.	.	.	.	.	.	4c	.	.	.
1E	-am.	1B	-am.	.	.	1e	-am.	1g	-am.
=283	=283	=283	=283	=283	=283	=283	=283	=283	=283
2.C	Mi-	2.c	Mi-	2.e	Mi-	2.E	Mi-	2.g	Mi-
4C	-se-	4c	-se-	4e	-se-	4E	-se-	4g	-se-
2C	-re-	2c	-re-	2e	-re-	2E	-re-	2g	-re-
2C	-re	2c	-re	2e	-re	2E	-re	2g	-re
=284	=284	=284	=284	=284	=284	=284	=284	=284	=284
2C	me-	2c	me-	2e	me-	2G	me-	2g	me-
2AA	-i,	2c	-i,	2e	-i,	2A	-i,	2cc	-i,
1D	de-	1d	de-	1f	de-	2.F	de-	2.a	de-
.	.	.	.	.	.	4G	.	4b	.
=285	=285	=285	=285	=285	=285	=285	=285	=285	=285
0AA	-us,	1c	us,	[0el	-us.	1A	us,	1cc	-us,
.	.	2A	mi-	.	.	2A	mi-	2cc	mi-
.	.	2c	-se-	.	.	2A	-se-	2cc	-se-
=286	=286	=286	=286	=286	=286	=286	=286	=286	=286
0r	.	2A	-re-	0e_	.	2A	-re-	2cc	-re-
.	.	2B	-re	.	.	2G	-re	2b	-re
.	.	1c	me-	.	.	1A	me-	1a	me-
=287	=287	=287	=287	=287	=287	=287	=287	=287	=287
0r	.	[0Bl	-i.-	0e_	.	[0El	-i.-	[0gl	-i.-
=288	=288	=288	=288	=288	=288	=288	=288	=288	=288
0El	i.-	0B]	.	0e]	.	0E]	.	0g]	.
!!LO:LB:i:g=z
=289||	=289||	=289||	=289||	=289||	=289||	=289||	=289||	=289||	=289||
*>C	*>C	*>C	*>C	*>C	*>C	*>C	*>C	*>C	*>C
*clefF4	*	*clefGv2	*	*clefGv2	*	*clefGv2	*	*clefG2	*
*k[]	*	*k[]	*	*k[]	*	*k[]	*	*k[]	*
*M2/1	*	*M2/1	*	*M2/1	*	*M2/1	*	*M2/1	*
*met(C|)	*	*met(C|)	*	*met(C|)	*	*met(C|)	*	*met(C|)	*
!!!OMD: Tertia pars: Domine, labia mea aperies
!!section: Tertia pars: Domine, labia mea aperies
0r	.	0r	.	0r	.	1G	-Do-	0r	.
.	.	.	.	.	.	2G	-mi-	.	.
.	.	.	.	.	.	2G	-ne,	.	.
=290	=290	=290	=290	=290	=290	=290	=290	=290	=290
0r	.	0r	.	0r	.	2G	la-	1g	-Do-
.	.	.	.	.	.	2G	-bi-	.	.
.	.	.	.	.	.	2G	-a	2g	-mi-
.	.	.	.	.	.	2G	me-	2g	-ne,
=291	=291	=291	=291	=291	=291	=291	=291	=291	=291
1C	-Do-	0r	.	0r	.	1G	-a	2g	la-
.	.	.	.	.	.	.	.	2g	-bi-
2C	-mi-	.	.	.	.	1G	a-	2g	-a
2C	-ne,	.	.	.	.	.	.	2g	me-
=292	=292	=292	=292	=292	=292	=292	=292	=292	=292
2C	la-	1c	-Do-	0r	.	1.G	-pe-	1g	-a
2C	-bi-	.	.	.	.	.	.	.	.
2C	-a	2c	-mi-	.	.	.	.	1g	a-
2C	me-	2c	-ne,	.	.	2E	-ri-	.	.
=293	=293	=293	=293	=293	=293	=293	=293	=293	=293
1C	-a	2c	la-	0r	.	0E	-es,	1.g	-pe-
.	.	2c	-bi-	.	.	.	.	.	.
1C	a-	2c	-a	.	.	.	.	.	.
.	.	2c	me-	.	.	.	.	2e	-ri-
=294	=294	=294	=294	=294	=294	=294	=294	=294	=294
1.C	-pe-	1c	-a	0r	.	0r	.	0e	-es,
.	.	1c	a-	.	.	.	.	.	.
2AA	-ri-	.	.	.	.	.	.	.	.
=295	=295	=295	=295	=295	=295	=295	=295	=295	=295
0AA	-es,	1.c	-pe-	0r	.	1r	.	1.cc	et
.	.	.	.	.	.	[1c	et	.	.
.	.	2A	-ri-	.	.	.	.	2cc	os
=296	=296	=296	=296	=296	=296	=296	=296	=296	=296
1.F	et	0A	-es,	0r	.	2c]	.	1cc	me-
.	.	.	.	.	.	2c	os	.	.
.	.	.	.	.	.	1c	me-	2cc	-um
2F	os	.	.	.	.	.	.	2cc	an-
=297	=297	=297	=297	=297	=297	=297	=297	=297	=297
1F	me-	1.f	et	0r	.	2c	-um	2cc	-nun-
.	.	.	.	.	.	2c	an-	2cc	-ti-
2F	-um	.	.	.	.	2c	-nun-	1cc	-a-
2F	an-	2f	os	.	.	2c	-ti-	.	.
=298	=298	=298	=298	=298	=298	=298	=298	=298	=298
2F	-nun-	1f	me-	0r	.	1c	-a-	0a	-bit
2F	-ti-	.	.	.	.	.	.	.	.
1F	-a-	2f	-um	.	.	1A	-bit	.	.
.	.	2f	an-	.	.	.	.	.	.
=299	=299	=299	=299	=299	=299	=299	=299	=299	=299
0D	-bit	2f	-nun-	0r	.	1A	lau-	1r	.
.	.	2f	-ti-	.	.	.	.	.	.
.	.	1f	-a-	.	.	[1d	-dem	1a	lau-
=300	=300	=300	=300	=300	=300	=300	=300	=300	=300
1r	.	1d	-bit	0r	.	2d]	.	2.a	-dem
.	.	.	.	.	.	2.d	tu-	.	.
.	.	.	.	.	.	.	.	4g	.
1D	lau-	1f	lau-	.	.	.	.	2a	.
.	.	.	.	.	.	4c	.	.	.
.	.	.	.	.	.	4B	.	[2b	tu-
.	.	.	.	.	.	4A	.	.	.
=301	=301	=301	=301	=301	=301	=301	=301	=301	=301
2E	-dem	2e	-dem	0r	.	2G	.	4b]	.
.	.	.	.	.	.	.	.	4a	.
2F	.	2d	.	.	.	2A	.	1a	.
1E	tu-	[1e	tu-	.	.	1B	.	.	.
.	.	.	.	.	.	.	.	4g	.
.	.	.	.	.	.	.	.	4f	.
=302	=302	=302	=302	=302	=302	=302	=302	=302	=302
0C	-am.	2e]	.	1.e	Mi-	1E	-am.	0g	-am.
.	.	2c	.	.	.	.	.	.	.
.	.	1c	-am.	.	.	[1g	Mi-	.	.
.	.	.	.	2e	-se-	.	.	.	.
=303	=303	=303	=303	=303	=303	=303	=303	=303	=303
1r	.	1.g	Mi-	1e	-re-	2g]	.	0r	.
.	.	.	.	.	.	2f	-se-	.	.
[1c	Mi-	.	.	1e	-re	2e	-re-	.	.
.	.	2f	-se-	.	.	2d	.	.	.
=304	=304	=304	=304	=304	=304	=304	=304	=304	=304
2c]	.	2e	-re-	1e	me-	2c	-re	0r	.
2B	-se-	2d	-re	.	.	2.g	me-	.	.
2A	-re-	2c	me-	1e	-i,	.	.	.	.
.	.	.	.	.	.	4f	.	.	.
2G	-re	2B	-i,	.	.	2e	-i,	.	.
=305	=305	=305	=305	=305	=305	=305	=305	=305	=305
2F	me-	2A	de-	0f	de-	4d	de-	0r	.
.	.	.	.	.	.	4c	.	.	.
2E	-i,	2G	.	.	.	1c	.	.	.
1D	de-	1F	.	.	.	.	.	.	.
.	.	.	.	.	.	2B	.	.	.
=306	=306	=306	=306	=306	=306	=306	=306	=306	=306
0C	-us,	0G	-us,	[0e	-us,	0c	-us,	0r	.
=307	=307	=307	=307	=307	=307	=307	=307	=307	=307
0r	us,	1.c	Quo-	0e]	.	0r	.	1r	.
.	.	.	.	.	.	.	.	[1cc	Quo-
.	.	2B	-ni-	.	.	.	.	.	.
=308	=308	=308	=308	=308	=308	=308	=308	=308	=308
0r	.	2A	-am	0r	.	0r	.	2cc]	.
.	.	2G	si	.	.	.	.	2b	-ni-
.	.	1c	vo-	.	.	.	.	2a	-am
.	.	.	.	.	.	.	.	2g	si
=309	=309	=309	=309	=309	=309	=309	=309	=309	=309
0r	.	2d	.	0r	.	0r	.	2f	vo-
.	.	2c	-lu-	.	.	.	.	2e	-lu-
.	.	1f	-is-	.	.	.	.	1d	-is-
=310	=310	=310	=310	=310	=310	=310	=310	=310	=310
1r	.	0e	-ses	0r	.	1.g	Quo-	0c	-ses
[1c	Quo-	.	.	.	.	.	.	.	.
.	.	.	.	.	.	2f	-ni-	.	.
=311	=311	=311	=311	=311	=311	=311	=311	=311	=311
2c]	.	0r	.	0r	.	2e	-am	0r	.
2B	-ni-	.	.	.	.	2d	si	.	.
2A	-am	.	.	.	.	2c	vo-	.	.
2G	si	.	.	.	.	[2d	.	.	.
=312	=312	=312	=312	=312	=312	=312	=312	=312	=312
2F	vo-	0r	.	0r	.	2d]	.	0r	.
2E	-lu-	.	.	.	.	2c	-lu-	.	.
1D	-is-	.	.	.	.	1f	-is-	.	.
=313	=313	=313	=313	=313	=313	=313	=313	=313	=313
0C	-ses	1.c	sa-	0r	.	0e	-ses	1r	.
.	.	.	.	.	.	.	.	[1cc	sa-
.	.	2B	-cri-	.	.	.	.	.	.
=314	=314	=314	=314	=314	=314	=314	=314	=314	=314
0r	.	2A	-fi-	0r	.	0r	.	2cc]	.
.	.	2G	-ci-	.	.	.	.	2b	-cri-
.	.	1c	-um,	.	.	.	.	2a	-fi-
.	.	.	.	.	.	.	.	2g	-ci-
=315	=315	=315	=315	=315	=315	=315	=315	=315	=315
0r	.	2d	de-	0r	.	0r	.	2f	-um,
.	.	2c	.	.	.	.	.	2e	de-
.	.	1f	-dis-	.	.	.	.	1d	-dis-
=316	=316	=316	=316	=316	=316	=316	=316	=316	=316
1r	.	0e	-sem	0r	.	1.g	sa-	0c	-sem
[1c	sa-	.	.	.	.	.	.	.	.
.	.	.	.	.	.	2f	-cri-	.	.
=317	=317	=317	=317	=317	=317	=317	=317	=317	=317
2c]	.	0r	.	0r	.	2e	-fi-	0r	.
2B	-cri-	.	.	.	.	2d	-ci-	.	.
2A	-fi-	.	.	.	.	2c	-um,	.	.
2G	-ci-	.	.	.	.	[2d	de-	.	.
=318	=318	=318	=318	=318	=318	=318	=318	=318	=318
2F	-um,	0r	.	0r	.	2d]	.	0r	.
2E	de-	.	.	.	.	2c	.	.	.
1D	-dis-	.	.	.	.	1f	-dis-	.	.
=319	=319	=319	=319	=319	=319	=319	=319	=319	=319
0C	-sem	1r	.	0r	.	0e	-sem	1.g	u-
.	.	[1c	u-	.	.	.	.	.	.
.	.	.	.	.	.	.	.	2g	-ti-
=320	=320	=320	=320	=320	=320	=320	=320	=320	=320
0r	.	2c]	.	0r	.	0r	.	2g	-que:
.	.	2c	-ti-	.	.	.	.	2g	ho-
.	.	2c	-que:	.	.	.	.	1a	-lo-
.	.	2c	ho-	.	.	.	.	.	.
=321	=321	=321	=321	=321	=321	=321	=321	=321	=321
1r	.	1d	-lo-	0r	.	1.d	u-	2.f	-cau-
.	.	.	.	.	.	.	.	4d	.
[1G	u-	2.B	-cau-	.	.	.	.	1d	-stis
.	.	.	.	.	.	2d	-ti-	.	.
.	.	4G	.	.	.	.	.	.	.
=322	=322	=322	=322	=322	=322	=322	=322	=322	=322
2G]	.	1G	-stis	0r	.	2d	-que:	0r	.
2G	-ti-	.	.	.	.	2d	ho-	.	.
2G	-que:	1r	.	.	.	1e	-lo-	.	.
2G	ho-	.	.	.	.	.	.	.	.
=323	=323	=323	=323	=323	=323	=323	=323	=323	=323
1A	-lo-	0r	.	0r	.	2.c	-cau-	0r	.
.	.	.	.	.	.	4A	.	.	.
2.F	-cau-	.	.	.	.	1A	-stis	.	.
4D	.	.	.	.	.	.	.	.	.
=324	=324	=324	=324	=324	=324	=324	=324	=324	=324
1D	-stis	2r	.	0r	.	0r	.	2r	.
.	.	2d	non	.	.	.	.	2a	non
1r	.	2.d	de-	.	.	.	.	2.b	de-
.	.	4c	-lec-	.	.	.	.	4a	-lec-
=325	=325	=325	=325	=325	=325	=325	=325	=325	=325
2r	.	2B	-ta-	0r	.	2r	.	2g	-ta-
2D	non	2A	-be-	.	.	2d	non	2f#i	-be-
2.E	de-	1G	-ris,	.	.	2.c	de-	1g	-ris,
4D	-lec-	.	.	.	.	4B	-lec-	.	.
=326	=326	=326	=326	=326	=326	=326	=326	=326	=326
2C	-ta-	1r	.	0r	.	2A	-ta-	1r	.
2BB	-be-	.	.	.	.	2G#i	-be-	.	.
[1AA	-ris,	2r	.	.	.	[1A	-ris,	2r	.
.	.	2e	non	.	.	.	.	2cc	non
=327	=327	=327	=327	=327	=327	=327	=327	=327	=327
1AA]	.	2.e	de-	0r	.	1A]	.	2.cc	de-
.	.	4d	-lec-	.	.	.	.	4b	-lec-
1r	.	2c	-ta-	.	.	1r	.	2a	-ta-
.	.	2B	-be-	.	.	.	.	2g#i	-be-
=328	=328	=328	=328	=328	=328	=328	=328	=328	=328
2r	.	1A	-ris.	0r	.	2r	.	0a	-ris.
2A	non	.	.	.	.	2e	non	.	.
2.A	de-	1r	.	.	.	2.f	de-	.	.
4G	-lec-	.	.	.	.	4e	-lec-	.	.
=329	=329	=329	=329	=329	=329	=329	=329	=329	=329
2F	-ta-	1r	.	0r	.	2d	-ta-	0r	.
2E	-be-	.	.	.	.	2c#i	-be-	.	.
2D	-ris,	2r	.	.	.	2d	-ris,	.	.
2A	non	2c	non	.	.	2e	non	.	.
=330	=330	=330	=330	=330	=330	=330	=330	=330	=330
2.A	de-	2.c	de-	0r	.	2.f	de-	0r	.
4G	-lec-	4B	-lec-	.	.	4e	-lec-	.	.
2F	-ta-	2A	-ta-	.	.	2d	-ta-	.	.
2E	-be-	2G	-be-	.	.	2c#i	-be-	.	.
=331	=331	=331	=331	=331	=331	=331	=331	=331	=331
0D	-ris.	1A	-ris.	1.d	Mi-	1d	-ris.	1r	.
.	.	1r	.	.	.	1r	.	[1dd	Mi-
.	.	.	.	2d	-se-	.	.	.	.
=332	=332	=332	=332	=332	=332	=332	=332	=332	=332
1r	.	1.G	Mi-	1d	-re-	1.B	Mi-	2dd]	.
.	.	.	.	.	.	.	.	2dd	-se-
[1G	Mi-	.	.	1d	-re	.	.	2dd	-re-
.	.	2G	-se-	.	.	2B	-se-	2dd	-re
=333	=333	=333	=333	=333	=333	=333	=333	=333	=333
2G]	.	1G	-re-	1d	me-	1B	-re-	2dd	me-
2G	-se-	.	.	.	.	.	.	2dd	-i,
2G	-re-	1G	-re	1d	-i,	1B	-re	2.b	de-
2G	-re	.	.	.	.	.	.	.	.
.	.	.	.	.	.	.	.	4g	.
=334	=334	=334	=334	=334	=334	=334	=334	=334	=334
2E	me-	2G	me-	0e	de-	2B	me-	0g	-us,
2E	-i,	2G	-i,	.	.	2B	-i,	.	.
1C	de-	2.E	de-	.	.	1c	de-	.	.
.	.	4F	.	.	.	.	.	.	.
=335	=335	=335	=335	=335	=335	=335	=335	=335	=335
[0GG	-us,	[0G	-us,	[0d	-us,	0B	-us,	0r	.
=336	=336	=336	=336	=336	=336	=336	=336	=336	=336
0GG]	.	0G]	.	0d]	.	1r	.	1.g	Sa-
.	.	.	.	.	.	[1G	Sa-	.	.
.	.	.	.	.	.	.	.	2a	-cri-
=337	=337	=337	=337	=337	=337	=337	=337	=337	=337
0r	.	0r	.	0r	.	2G]	.	2b	-fi-
.	.	.	.	.	.	2A	-cri-	2cc	-ci-
.	.	.	.	.	.	2B	-fi-	2dd	-um
.	.	.	.	.	.	2c	-ci-	4g	de-
.	.	.	.	.	.	.	.	4a	.
=338	=338	=338	=338	=338	=338	=338	=338	=338	=338
0r	.	0r	.	0r	.	2.d	-um	4b	.
.	.	.	.	.	.	.	.	4cc	.
.	.	.	.	.	.	.	.	2.dd	.
.	.	.	.	.	.	4f	.	.	.
.	.	.	.	.	.	1e	de-	.	.
.	.	.	.	.	.	.	.	4cc#i	.
.	.	.	.	.	.	.	.	4cc#i	.
.	.	.	.	.	.	.	.	4b	.
=339	=339	=339	=339	=339	=339	=339	=339	=339	=339
1r	.	1.G	Sa-	0r	.	0d	-o	0dd	-o
[1GG	Sa-	.	.	.	.	.	.	.	.
.	.	2A	-cri-	.	.	.	.	.	.
=340	=340	=340	=340	=340	=340	=340	=340	=340	=340
2GG]	.	2B	-fi-	0r	.	0r	.	0r	.
2AA	-cri-	2c	-ci-	.	.	.	.	.	.
2BB	-fi-	2d	-um	.	.	.	.	.	.
2C	-ci-	4G	de-	.	.	.	.	.	.
.	.	4A	.	.	.	.	.	.	.
=341	=341	=341	=341	=341	=341	=341	=341	=341	=341
2.D	-um	4B	.	0r	.	0r	.	0r	.
.	.	4c	.	.	.	.	.	.	.
.	.	2.d	.	.	.	.	.	.	.
4F	.	.	.	.	.	.	.	.	.
1E	de-	.	.	.	.	.	.	.	.
.	.	4c#i	.	.	.	.	.	.	.
.	.	4c#i	.	.	.	.	.	.	.
.	.	4B	.	.	.	.	.	.	.
=342	=342	=342	=342	=342	=342	=342	=342	=342	=342
0D	-o	0d	-o	0r	.	1r	.	1.d	spi-
.	.	.	.	.	.	[1D	spi-	.	.
.	.	.	.	.	.	.	.	2e	-ri-
=343	=343	=343	=343	=343	=343	=343	=343	=343	=343
0r	.	0r	.	0r	.	2D]	.	2f	-tus
.	.	.	.	.	.	2E	-ri-	2g	con-
.	.	.	.	.	.	2F	-tus	2a	-tri-
.	.	.	.	.	.	2G	con-	4d	-bu-
.	.	.	.	.	.	.	.	4e	.
=344	=344	=344	=344	=344	=344	=344	=344	=344	=344
0r	.	0r	.	0r	.	2A	-tri-	4f	-la-
.	.	.	.	.	.	.	.	4g	.
.	.	.	.	.	.	2c	-bu-	2.a	.
.	.	.	.	.	.	1B	-la-	.	.
.	.	.	.	.	.	.	.	4g#i	.
.	.	.	.	.	.	.	.	4g#i	.
.	.	.	.	.	.	.	.	4f#i	.
=345	=345	=345	=345	=345	=345	=345	=345	=345	=345
1r	.	1.A	spi-	0r	.	0A	-tus;	0a	-tus;
[1AA	spi-	.	.	.	.	.	.	.	.
.	.	2B	-ri-	.	.	.	.	.	.
=346	=346	=346	=346	=346	=346	=346	=346	=346	=346
2AA]	.	2c	-tus	0r	.	0r	.	0r	.
2BB	-ri-	2d	con-	.	.	.	.	.	.
2C	-tus	2e	-tri-	.	.	.	.	.	.
2D	con-	4A	-bu-	.	.	.	.	.	.
.	.	4B	.	.	.	.	.	.	.
=347	=347	=347	=347	=347	=347	=347	=347	=347	=347
2E	-tri-	4c	-la-	0r	.	0r	.	0r	.
.	.	4d	.	.	.	.	.	.	.
2G	-bu-	2.e	.	.	.	.	.	.	.
1F	-la-	.	.	.	.	.	.	.	.
.	.	4d	.	.	.	.	.	.	.
.	.	4d	.	.	.	.	.	.	.
.	.	4c	.	.	.	.	.	.	.
=348	=348	=348	=348	=348	=348	=348	=348	=348	=348
0E	-tus;	0e	-tus;	0r	.	1r	.	2r	.
.	.	.	.	.	.	.	.	2e	cor
.	.	.	.	.	.	1E	cor	[1g	con-
=349	=349	=349	=349	=349	=349	=349	=349	=349	=349
0r	.	0r	.	0r	.	1.G	con-	2g]	.
.	.	.	.	.	.	.	.	2a	-tri-
.	.	.	.	.	.	.	.	2b	-tum
.	.	.	.	.	.	2A	-tri-	2e	et
=350	=350	=350	=350	=350	=350	=350	=350	=350	=350
0r	.	0r	.	0r	.	2B	-tum	2g	hu-
.	.	.	.	.	.	2E	et	2g	-mi-
.	.	.	.	.	.	2B	hu-	2g	-li-
.	.	.	.	.	.	2c	-mi-	[2g	-a-
=351	=351	=351	=351	=351	=351	=351	=351	=351	=351
0r	.	0r	.	0r	.	2B	-li-	2g]	.
.	.	.	.	.	.	2.e	-a-	4f	.
.	.	.	.	.	.	.	.	4e	.
.	.	.	.	.	.	.	.	1f	.
.	.	.	.	.	.	4d	.	.	.
.	.	.	.	.	.	4d	.	.	.
.	.	.	.	.	.	4c	.	.	.
=352	=352	=352	=352	=352	=352	=352	=352	=352	=352
1r	.	2r	.	0r	.	0e	-tum,	0e	-tum,
.	.	2A	cor	.	.	.	.	.	.
1AA	cor	[1c	con-	.	.	.	.	.	.
=353	=353	=353	=353	=353	=353	=353	=353	=353	=353
1.C	con-	2c]	.	0r	.	0r	.	0r	.
.	.	2d	-tri-	.	.	.	.	.	.
.	.	2e	-tum	.	.	.	.	.	.
2D	-tri-	2A	et	.	.	.	.	.	.
=354	=354	=354	=354	=354	=354	=354	=354	=354	=354
2E	-tum	2c	hu-	0r	.	0r	.	0r	.
2AA	et	2c	-mi-	.	.	.	.	.	.
2E	hu-	2c	-li-	.	.	.	.	.	.
2F	-mi-	[2c	-a-	.	.	.	.	.	.
=355	=355	=355	=355	=355	=355	=355	=355	=355	=355
2E	-li-	2c]	.	0r	.	0r	.	0r	.
1A	-a-	4B	.	.	.	.	.	.	.
.	.	4A	.	.	.	.	.	.	.
.	.	1B	-tum,	.	.	.	.	.	.
4G	.	.	.	.	.	.	.	.	.
4F	.	.	.	.	.	.	.	.	.
=356	=356	=356	=356	=356	=356	=356	=356	=356	=356
1G	-tum,	1r	.	0r	.	1r	.	0r	.
2r	.	[1G	de-	.	.	[1B	de-	.	.
[2E	de-	.	.	.	.	.	.	.	.
=357	=357	=357	=357	=357	=357	=357	=357	=357	=357
2E]	.	2G]	.	0r	.	2B]	.	0r	.
2E	-us,	2G	-us,	.	.	2B	-us,	.	.
2E	non	2G	non	.	.	2c	non	.	.
2D	des-	2F	des-	.	.	[2B	des-	.	.
=358	=358	=358	=358	=358	=358	=358	=358	=358	=358
1C	-pi-	1E	-pi-	0r	.	4B]	.	0r	.
.	.	.	.	.	.	4A	.	.	.
.	.	.	.	.	.	1A	-pi-	.	.
1BB	-ci-	1D	-ci-	.	.	.	.	.	.
.	.	.	.	.	.	2G#i	-ci-	.	.
=359	=359	=359	=359	=359	=359	=359	=359	=359	=359
0AA	-es,	1E	-es,	0r	.	[0A	-es,	1r	.
.	.	[1e	de-	.	.	.	.	[1cc	de-
=360	=360	=360	=360	=360	=360	=360	=360	=360	=360
0r	.	2e]	.	0r	.	0A]	.	2cc]	.
.	.	2e	-us,	.	.	.	.	2b	-us,
.	.	2f	non	.	.	.	.	2a	non
.	.	[2e	des-	.	.	.	.	2g	des-
=361	=361	=361	=361	=361	=361	=361	=361	=361	=361
0r	.	4e]	.	0r	.	0r	.	1f	-pi-
.	.	4d	.	.	.	.	.	.	.
.	.	1d	-pi-	.	.	.	.	.	.
.	.	.	.	.	.	.	.	1e	-ci-
.	.	2c#i	-ci-	.	.	.	.	.	.
=362	=362	=362	=362	=362	=362	=362	=362	=362	=362
1r	.	1d	-es,	0r	.	1r	.	0d	-es.
[1G	de-	2r	.	.	.	[1B	de-	.	.
.	.	[2d	de-	.	.	.	.	.	.
=363	=363	=363	=363	=363	=363	=363	=363	=363	=363
2G]	.	2d]	.	0r	.	2B]	.	0r	.
2F	-us,	2d	-us,	.	.	2A	-us,	.	.
2E	non	2c	non	.	.	2G	non	.	.
2D	des-	[2B	des-	.	.	2F	des-	.	.
=364	=364	=364	=364	=364	=364	=364	=364	=364	=364
1C	-pi-	4B]	.	0r	.	1E	-pi-	0r	.
.	.	4A	.	.	.	.	.	.	.
.	.	1A	-pi-	.	.	.	.	.	.
1BB	-ci-	.	.	.	.	1D	-ci-	.	.
.	.	2G#i	-ci-	.	.	.	.	.	.
=365	=365	=365	=365	=365	=365	=365	=365	=365	=365
0AA	-es.	0A	-es.	1.c	Mi-	1E	-es.	0r	.
.	.	.	.	.	.	[1e	Mi-	.	.
.	.	.	.	2c	-se-	.	.	.	.
=366	=366	=366	=366	=366	=366	=366	=366	=366	=366
1r	.	1.e	Mi-	1c	-re-	2e]	.	0r	.
.	.	.	.	.	.	2d	-se-	.	.
[1A	Mi-	.	.	1c	-re	2c	-re-	.	.
.	.	2d	-se-	.	.	2B	-re	.	.
=367	=367	=367	=367	=367	=367	=367	=367	=367	=367
2A]	.	2c	-re-	1c	me-	2A	me-	0r	.
2G	-se-	2B	-re	.	.	2.e	.	.	.
2F	-re-	2A	me-	1c	-i,	.	.	.	.
.	.	.	.	.	.	4d	.	.	.
2E	-re	2G	-i,	.	.	2c	-i,	.	.
=368	=368	=368	=368	=368	=368	=368	=368	=368	=368
2D	me-	2F	de-	0d	de-	4B	de-	0r	.
.	.	.	.	.	.	4A	.	.	.
2C	-i,	2E	.	.	.	1A	.	.	.
1BB	de-	1D	.	.	.	.	.	.	.
.	.	.	.	.	.	2G#i	.	.	.
=369	=369	=369	=369	=369	=369	=369	=369	=369	=369
[0AA	-us,	0E	-us,	[0c	-us,	0A	-us,	0r	.
=370	=370	=370	=370	=370	=370	=370	=370	=370	=370
0AA]	.	1.A	Be-	0c]	.	0r	.	1r	.
.	.	.	.	.	.	.	.	[1e	Be-
.	.	2B	-ni-	.	.	.	.	.	.
=371	=371	=371	=371	=371	=371	=371	=371	=371	=371
0r	.	2c	-gne	0r	.	0r	.	2e]	.
.	.	2A	fac,	.	.	.	.	2f	-ni-
.	.	2B	do-	.	.	.	.	2g	-gne
.	.	2c	-mi-	.	.	.	.	2e	fac,
=372	=372	=372	=372	=372	=372	=372	=372	=372	=372
1.D	Be-	1d	-ne,	0r	.	1r	.	2f	do-
.	.	.	.	.	.	.	.	2g	-mi-
.	.	1r	.	.	.	[1A	Be-	1a	-ne,
2E	-ni-	.	.	.	.	.	.	.	.
=373	=373	=373	=373	=373	=373	=373	=373	=373	=373
2F	-gne	0r	.	0r	.	2A]	.	0r	.
2D	fac,	.	.	.	.	2B	-ni-	.	.
2E	do-	.	.	.	.	2c	-gne	.	.
2F	-mi-	.	.	.	.	2A	fac,	.	.
=374	=374	=374	=374	=374	=374	=374	=374	=374	=374
2.G	-ne,	1.d	in	0r	.	2B	do-	1r	.
.	.	.	.	.	.	2c	-mi-	.	.
4F	.	.	.	.	.	.	.	.	.
1D	.	.	.	.	.	1d	-ne,	[1a	in
.	.	2e	bo-	.	.	.	.	.	.
=375	=375	=375	=375	=375	=375	=375	=375	=375	=375
0r	.	2f	-na	0r	.	0r	.	2a]	.
.	.	2d	vo-	.	.	.	.	2b	bo-
.	.	2e	-lun-	.	.	.	.	2cc	-na
.	.	2f	-ta-	.	.	.	.	2a	vo-
=376	=376	=376	=376	=376	=376	=376	=376	=376	=376
0r	.	2g	-te	0r	.	0r	.	2b	-lun-
.	.	2e	tu-	.	.	.	.	2cc	-ta-
.	.	2f	-a	.	.	.	.	2dd	-te
.	.	[2g	Si-	.	.	.	.	2b	tu-
=377	=377	=377	=377	=377	=377	=377	=377	=377	=377
0r	.	4g]	.	0r	.	0r	.	2dd	-a
.	.	4f	.	.	.	.	.	.	.
.	.	4e	.	.	.	.	.	1cc	Si-
.	.	4d	.	.	.	.	.	.	.
.	.	[1e	-on,	.	.	.	.	.	.
.	.	.	.	.	.	.	.	4b	.
.	.	.	.	.	.	.	.	4a	.
=378	=378	=378	=378	=378	=378	=378	=378	=378	=378
1.E	in	1e]	.	0r	.	1r	.	0g	-on,
.	.	1r	.	.	.	[1B	in	.	.
2F	bo-	.	.	.	.	.	.	.	.
=379	=379	=379	=379	=379	=379	=379	=379	=379	=379
2G	-na	0r	.	0r	.	2B]	.	0r	.
2E	vo-	.	.	.	.	2c	bo-	.	.
2F	-lun-	.	.	.	.	2d	-na	.	.
2G	-ta-	.	.	.	.	2B	vo-	.	.
=380	=380	=380	=380	=380	=380	=380	=380	=380	=380
2A	-te	0r	.	0r	.	2c	-lun-	0r	.
2F	tu-	.	.	.	.	2d	-ta-	.	.
[1E	-a	.	.	.	.	2e	-te	.	.
.	.	.	.	.	.	2c	tu-	.	.
=381	=381	=381	=381	=381	=381	=381	=381	=381	=381
1E]	.	1r	.	0r	.	1B	-a	1g	ut
2.C	a	1e	ut	.	.	1c	Si-	2g	e-
.	.	.	.	.	.	.	.	2g	-di-
4D	.	.	.	.	.	.	.	.	.
=382	=382	=382	=382	=382	=382	=382	=382	=382	=382
0E	Si-	2e	e-	0r	.	1B	-on,	2.g	-fi-
.	.	2e	-di-	.	.	.	.	.	.
.	.	.	.	.	.	.	.	4a	.
.	.	1e	-fi-	.	.	1r	.	2b	.
.	.	.	.	.	.	.	.	[2cc	-cen-
=383	=383	=383	=383	=383	=383	=383	=383	=383	=383
0r	.	1f	-cen-	0r	.	0r	.	2cc]	.
.	.	.	.	.	.	.	.	4b	.
.	.	.	.	.	.	.	.	4a	.
.	.	2e	-tur	.	.	.	.	1cc	.
.	.	2c	mu-	.	.	.	.	.	.
=384	=384	=384	=384	=384	=384	=384	=384	=384	=384
0r	.	2d	-ri	0r	.	0r	.	2b	-tur
.	.	2e	Je-	.	.	.	.	2g	mu-
.	.	2f	-ru-	.	.	.	.	2a	-ri
.	.	2d	.	.	.	.	.	2b	Je-
=385	=385	=385	=385	=385	=385	=385	=385	=385	=385
0r	.	2e	.	0r	.	0r	.	1cc	-ru-
.	.	1c	.	.	.	.	.	.	.
.	.	.	.	.	.	.	.	1a	-sa-
.	.	4B	-sa-	.	.	.	.	.	.
.	.	4A	.	.	.	.	.	.	.
=386	=386	=386	=386	=386	=386	=386	=386	=386	=386
0r	.	0G	-lem.	1.B	Mi-	1r	.	0b	-lem.
.	.	.	.	.	.	[1d	Mi-	.	.
.	.	.	.	2B	-se-	.	.	.	.
=387	=387	=387	=387	=387	=387	=387	=387	=387	=387
1r	.	1.d	Mi-	1B	-re-	2d]	.	0r	.
.	.	.	.	.	.	2c	-se-	.	.
[1G	-Mi-	.	.	1B	-re	2B	-re-	.	.
.	.	2c	-se-	.	.	2A	-re	.	.
=388	=388	=388	=388	=388	=388	=388	=388	=388	=388
2G]	.	2B	-re-	1B	me-	2G	me-	2.g	Mi-
2F	-se-	2A	-re	.	.	2.d	.	.	.
.	.	.	.	.	.	.	.	4g	-se-
2E	-re-	2G	me-	1B	-i,	.	.	2g	-re-
.	.	.	.	.	.	4c	.	.	.
2D	-re	2F	-i,	.	.	2B	-i,	2g	-re
=389	=389	=389	=389	=389	=389	=389	=389	=389	=389
2C	me-	2E	de-	0c	de-	4A	de-	2a	me-
.	.	.	.	.	.	4G	.	.	.
2BB	-i,	2D	.	.	.	1G	.	2b	-i,
1AA	de-	1C	.	.	.	.	.	2cc	de-
.	.	.	.	.	.	2F#i	.	2a	.
=390	=390	=390	=390	=390	=390	=390	=390	=390	=390
[0GG	-us,	2D	-us,	[0B	-us,	[0G	-us,	2b	.
.	.	2G	Tunc	.	.	.	.	1g	.
.	.	2E	ac-	.	.	.	.	.	.
.	.	[2G	-cep-	.	.	.	.	4f	.
.	.	.	.	.	.	.	.	4e	.
=391	=391	=391	=391	=391	=391	=391	=391	=391	=391
0GG]	.	2G]	.	0B]	.	0G]	.	0d	-us,
.	.	4F	.	.	.	.	.	.	.
.	.	4E	.	.	.	.	.	.	.
.	.	1D	.	.	.	.	.	.	.
=392	=392	=392	=392	=392	=392	=392	=392	=392	=392
2r	.	4C	-ta-	0r	.	0r	.	0r	.
.	.	4D	.	.	.	.	.	.	.
2G	Tunc	4E	.	.	.	.	.	.	.
.	.	4F	.	.	.	.	.	.	.
2E	ac-	2.G	.	.	.	.	.	.	.
[2G	-cep-	.	.	.	.	.	.	.	.
.	.	4A	.	.	.	.	.	.	.
=393	=393	=393	=393	=393	=393	=393	=393	=393	=393
2G]	.	2B	.	0r	.	0r	.	0r	.
4F	.	1c	.	.	.	.	.	.	.
4E	.	.	.	.	.	.	.	.	.
1D	.	.	.	.	.	.	.	.	.
.	.	2B	.	.	.	.	.	.	.
=394	=394	=394	=394	=394	=394	=394	=394	=394	=394
4C	-ta-	1c	.	0r	.	0r	.	2r	.
4D	.	.	.	.	.	.	.	.	.
4E	.	.	.	.	.	.	.	2g	Tunc
4F	.	.	.	.	.	.	.	.	.
2.G	.	1C	.	.	.	.	.	2e	ac-
.	.	.	.	.	.	.	.	[2g	-cep-
4A	.	.	.	.	.	.	.	.	.
=395	=395	=395	=395	=395	=395	=395	=395	=395	=395
2B	.	0G	-bis	0r	.	0r	.	2g]	.
1c	.	.	.	.	.	.	.	4f	.
.	.	.	.	.	.	.	.	4e	.
.	.	.	.	.	.	.	.	1d	.
2B	.	.	.	.	.	.	.	.	.
=396	=396	=396	=396	=396	=396	=396	=396	=396	=396
1c	.	0r	.	0r	.	2r	.	4c	-ta-
.	.	.	.	.	.	.	.	4d	.
.	.	.	.	.	.	2g	Tunc	4e	.
.	.	.	.	.	.	.	.	4f	.
1C	.	.	.	.	.	2e	ac-	2.g	.
.	.	.	.	.	.	[2g	-cep-	.	.
.	.	.	.	.	.	.	.	4a	.
=397	=397	=397	=397	=397	=397	=397	=397	=397	=397
0G	-bis	0r	.	0r	.	2g]	.	2b	.
.	.	.	.	.	.	4f	.	1cc	.
.	.	.	.	.	.	4e	.	.	.
.	.	.	.	.	.	1d	-ta-	.	.
.	.	.	.	.	.	.	.	2b	.
=398	=398	=398	=398	=398	=398	=398	=398	=398	=398
1r	.	1r	.	0r	.	1c	bis	1cc	-bis
[1C	sa-	[1e	sa-	.	.	[1c	sa-	[1cc	sa-
=399	=399	=399	=399	=399	=399	=399	=399	=399	=399
2C]	.	2e]	.	0r	.	2c]	.	2cc]	.
2C	-cri-	2e	-cri-	.	.	2c	-cri-	2cc	-cri-
2C	-fi-	2e	-fi-	.	.	2c	-fi-	2cc	-fi-
2C	-ci-	2e	-ci-	.	.	2c	-ci-	2cc	-ci-
=400	=400	=400	=400	=400	=400	=400	=400	=400	=400
1G	-um	1d	-um	0r	.	1d	-um	1b	-um
1E	ju-	1g	ju-	.	.	1e	ju-	1b	ju-
=401	=401	=401	=401	=401	=401	=401	=401	=401	=401
1.A	-sti-	1.e	-sti-	0r	.	1.c	-sti-	1.cc	-sti-
2A	-ti-	2f	-ti-	.	.	2c	-ti-	2cc	-ti-
=402	=402	=402	=402	=402	=402	=402	=402	=402	=402
1G	-e,	1g	-e,	0r	.	1d	-e,	1b	-e,
1E	ob-	1g	ob-	.	.	1e	ob-	1b	ob-
=403	=403	=403	=403	=403	=403	=403	=403	=403	=403
2A	-la-	2e	-la-	0r	.	2c	-la-	2cc	-la-
2A	-ti-	2e	-ti-	.	.	2c	-ti-	2cc	-ti-
1A	-o-	1f	-o-	.	.	1c	-o-	1cc	-o-
=404	=404	=404	=404	=404	=404	=404	=404	=404	=404
2G	-nes	1g	-nes	0r	.	2d	-nes	1b	-nes
2E	.	.	.	.	.	2e	.	.	.
1A	et	2r	.	.	.	2c	et	1cc	et
.	.	2c	et	.	.	2A	.	.	.
=405	=405	=405	=405	=405	=405	=405	=405	=405	=405
2G	ho-	2d	ho-	0r	.	2B	ho-	2b	ho-
2E	-lo-	2e	-lo-	.	.	2c	-lo-	2g	-lo-
1F	-cau-	2.c	-cau-	.	.	1A	-cau-	1a	-cau-
.	.	4d	.	.	.	.	.	.	.
=406	=406	=406	=406	=406	=406	=406	=406	=406	=406
1E	-sta;	1e	-sta;	0r	.	1B	-sta;	1g	-sta;
1A	tunc	2r	.	.	.	2r	.	1cc	tunc
.	.	2c	tunc	.	.	2A	tunc	.	.
=407	=407	=407	=407	=407	=407	=407	=407	=407	=407
2G	im-	2d	im-	0r	.	2B	im-	2b	im-
2E	.	2.e	-po-	.	.	2c	.	2g	.
1F	-po-	.	.	.	.	1A	-po-	1a	-po-
.	.	4d	.	.	.	.	.	.	.
.	.	4d	.	.	.	.	.	.	.
.	.	4c	.	.	.	.	.	.	.
=408	=408	=408	=408	=408	=408	=408	=408	=408	=408
1E	-nent	1e	-nent	0r	.	1B	-nent	1g	-nent
1A	su-	2r	.	.	.	2r	.	1cc	su-
.	.	2A	su-	.	.	2c	su-	.	.
=409	=409	=409	=409	=409	=409	=409	=409	=409	=409
2G	-per	2B	-per	0r	.	2d	-per	2b	-per
2E	al-	2c	al-	.	.	2e	al-	2g	al-
1F	-ta-	1A	-ta-	.	.	2.c	-ta-	1a	-ta-
.	.	.	.	.	.	4d	.	.	.
=410	=410	=410	=410	=410	=410	=410	=410	=410	=410
2E	-re	2B	-re	0r	.	1e	-re	2g	-re
2C	tu-	1c	tu-	.	.	.	.	2e	tu-
1F	-um	.	.	.	.	1A	um	1a	-um
.	.	2d	-um	.	.	.	.	.	.
=411	=411	=411	=411	=411	=411	=411	=411	=411	=411
1.E	vi-	1.e	vi-	0r	.	1c	vi-	1.g	vi-
.	.	.	.	.	.	[1B	.	.	.
2E	-tu-	2e	-tu-	.	.	.	.	2g	-tu-
=412	=412	=412	=412	=412	=412	=412	=412	=412	=412
[0E	-los.	[0e	-los.	0r	.	2B]	.	[0g	-los.
.	.	.	.	.	.	2B	-tu-	.	.
.	.	.	.	.	.	2B	-los.	.	.
.	.	.	.	.	.	[2c	.	.	.
=413	=413	=413	=413	=413	=413	=413	=413	=413	=413
0E]	.	0e]	.	0r	.	2c]	.	0g]	.
.	.	.	.	.	.	4B	.	.	.
.	.	.	.	.	.	4A	.	.	.
.	.	.	.	.	.	1B	.	.	.
=414	=414	=414	=414	=414	=414	=414	=414	=414	=414
1r	.	0r	.	1.A	Mi-	1.c	Mi-	1r	.
[1A	Mi-	.	.	.	.	.	.	[1cc	Mi-
.	.	.	.	2A	-se-	2d	-se-	.	.
=415	=415	=415	=415	=415	=415	=415	=415	=415	=415
2A]	.	2.c	Mi-	1A	-re-	1e	-re-	2cc]	.
2G	-se-	.	.	.	.	.	.	2b	-se-
.	.	4c	-se-	.	.	.	.	.	.
2F	-re-	2c	-re-	1A	-re	1A	-re	2a	-re-
2E	-re	2c	-re	.	.	.	.	2g	-re
=416	=416	=416	=416	=416	=416	=416	=416	=416	=416
2D	me-	2d	me-	1A	me-	2r	.	2f	me-
2C	-i,	2e	-i,	.	.	1c	me-	2e	-i,
1F	de-	2.c	de-	1A	-i,	.	.	1a	de-
.	.	.	.	.	.	2F	-i,	.	.
.	.	4d	.	.	.	.	.	.	.
=417	=417	=417	=417	=417	=417	=417	=417	=417	=417
0E	-us,	0e	-us,	0B	de-	2.G	de-	0g	-us,
.	.	.	.	.	.	4E	.	.	.
.	.	.	.	.	.	1E	-us,	.	.
=418	=418	=418	=418	=418	=418	=418	=418	=418	=418
1r	.	0r	.	[0Al	-us.	1.c	Mi-	1r	.
[1A	Mi-	.	.	.	.	.	.	[1cc	Mi-
.	.	.	.	.	.	2d	-se-	.	.
=419	=419	=419	=419	=419	=419	=419	=419	=419	=419
2A]	.	2.c	Mi-	0A_	.	1e	-re-	2cc]	.
2G	-se-	.	.	.	.	.	.	2b	-se-
.	.	4c	-se-	.	.	.	.	.	.
2F	-re-	2c	-re-	.	.	1A	-re	2a	-re-
2E	-re	2c	-re	.	.	.	.	2g	-re
=420	=420	=420	=420	=420	=420	=420	=420	=420	=420
2D	me-	2d	me-	0A_	.	1r	.	2f	me-
2C	-i,	2e	-i,	.	.	.	.	2e	-i,
1D	de-	1f	de-	.	.	2.F	me-	1d	de-
.	.	.	.	.	.	4G	.	.	.
=421	=421	=421	=421	=421	=421	=421	=421	=421	=421
[0AAl	-us.	[0el	-us.	0A_	.	2A	.	[0cl	-us.
.	.	.	.	.	.	2A	-i,	.	.
.	.	.	.	.	.	1A	de-	.	.
=422	=422	=422	=422	=422	=422	=422	=422	=422	=422
0AA]	.	0e]	.	0A]	.	0El	-us.	0c]	.
==	==	==	==	==	==	==	==	==	==
*-	*-	*-	*-	*-	*-	*-	*-	*-	*-
!!!RDF**kern: l=long note in original notation
!!!RDF**kern: i=editorial accidental
!!!ENC: Jesse Rodin
!!!END: 2019/12/09/
!!!EED: Jesse Rodin
!!!EEV: 2019/12/10/
!!attribution-level@Jos: 1 (secure, core group [checkmark])
!!!ONB: Translated from MusicXML and edited on 2019/12/10/ by Craig Sapp
!!muse2ps: C^@{COM}\n@{SCT}^i2I150v75,75,75,75,105c90z18l2780t100
